; generated by PrusaSlicer 2.3.1+linux-x64 on 2021-06-13 at 09:59:55 UTC

; 

; external perimeters extrusion width = 0.45mm
; perimeters extrusion width = 0.45mm
; infill extrusion width = 0.45mm
; solid infill extrusion width = 0.45mm
; top infill extrusion width = 0.40mm
; support material extrusion width = 0.35mm
; first layer extrusion width = 0.42mm

; external perimeters extrusion width = 0.45mm
; perimeters extrusion width = 0.45mm
; infill extrusion width = 0.45mm
; solid infill extrusion width = 0.45mm
; top infill extrusion width = 0.40mm
; support material extrusion width = 0.35mm
; first layer extrusion width = 0.42mm

M73 P0 R43
M73 Q0 S44
M201 X1000 Y1000 Z200 E5000 ; sets maximum accelerations, mm/sec^2
M203 X200 Y200 Z12 E120 ; sets maximum feedrates, mm/sec
M204 P1250 R1250 T1250 ; sets acceleration (P, T) and retract acceleration (R), mm/sec^2
M205 X8.00 Y8.00 Z0.40 E4.50 ; sets the jerk limits, mm/sec
M205 S0 T0 ; sets the minimum extruding and travel feed rate, mm/sec
M107
;TYPE:Custom
M862.3 P "MK3S" ; printer model check
M862.1 P0.4 ; nozzle diameter check
M115 U3.9.3 ; tell printer latest fw version
G90 ; use absolute coordinates
M83 ; extruder relative mode
M104 S205 ; set extruder temp
M140 S70 ; set bed temp
M190 S70 ; wait for bed temp
M109 S205 ; wait for extruder temp
G28 W ; home all without mesh bed level
G80 ; mesh bed leveling
G1 Y-3.0 F1000.0 ; go outside print area
G92 E0.0
G1 X60.0 E9.0 F1000.0 ; intro line
G1 X100.0 E12.5 F1000.0 ; intro line
G92 E0.0
M221 S95

; Don't change E values below. Excessive value can damage the printer.
M907 E430 ; set extruder motor current
G21 ; set units to millimeters
G90 ; use absolute coordinates
M83 ; use relative distances for extrusion
M900 K0.05 ; Filament gcode LA 1.5
M900 K30 ; Filament gcode LA 1.0
;LAYER_CHANGE
;Z:0.2
;HEIGHT:0.2
;BEFORE_LAYER_CHANGE
G92 E0.0
;0.2


G1 E-0.80000 F2100.000
G1 Z0.400 F10800.000
;AFTER_LAYER_CHANGE
;0.2
G1 X86.315 Y95.701
G1 Z0.200
G1 E0.80000 F2100.000
M204 S1000
;TYPE:Skirt
;WIDTH:0.42
G1 F1200.000
G1 X87.389 Y95.051 E0.03939
G1 X88.536 Y94.695 E0.03764
G1 X89.675 Y94.646 E0.03576
G1 X90.973 Y93.399 E0.05642
G1 X91.932 Y92.857 E0.03455
G1 X92.356 Y92.709 E0.01409
G1 X92.574 Y92.610 E0.00751
G1 X93.421 Y92.364 E0.02763
G1 X95.363 Y92.296 E0.06093
G1 X96.334 Y92.301 E0.03046
G1 X97.013 Y91.604 E0.03051
G1 X98.213 Y90.845 E0.04451
G1 X99.415 Y90.502 E0.03922
G1 X100.389 Y90.483 E0.03053
G1 X100.699 Y89.968 E0.01884
G1 X101.454 Y89.223 E0.03326
G1 X102.091 Y88.761 E0.02466
G1 X103.758 Y88.187 E0.05527
G1 X104.017 Y88.161 E0.00818
G1 X104.166 Y87.659 E0.01643
G1 X104.875 Y86.451 E0.04391
G1 X107.164 Y84.131 E0.10220
G1 X108.855 Y83.213 E0.06033
G1 X109.464 Y83.078 E0.01955
G1 X110.131 Y83.038 E0.02096
G1 X110.525 Y82.983 E0.01247
G1 X120.526 Y82.986 E0.31358
G1 X121.202 Y82.871 E0.02149
G1 X122.227 Y82.878 E0.03214
G1 X123.486 Y83.204 E0.04076
G1 X124.631 Y83.891 E0.04189
G1 X127.687 Y86.960 E0.13579
M73 Q0 S43
G1 X128.328 Y87.918 E0.03613
G1 X128.420 Y88.140 E0.00752
G1 X130.173 Y88.140 E0.05499
G1 X131.687 Y88.479 E0.04865
G1 X133.061 Y89.282 E0.04988
G1 X134.249 Y90.470 E0.05267
G1 X135.634 Y90.471 E0.04345
G1 X136.301 Y90.357 E0.02120
G1 X137.185 Y90.354 E0.02774
G1 X138.228 Y90.552 E0.03327
G1 X139.749 Y91.386 E0.05439
G1 X141.115 Y92.799 E0.06161
G1 X143.942 Y92.797 E0.08865
G1 X145.113 Y93.002 E0.03728
G1 X146.792 Y93.887 E0.05950
G1 X148.054 Y95.125 E0.05543
G1 X160.902 Y95.125 E0.40286
G1 X163.098 Y95.853 E0.07253
G1 X163.815 Y96.412 E0.02850
G1 X164.790 Y97.414 E0.04384
G1 X165.279 Y98.179 E0.02846
G1 X165.543 Y98.902 E0.02413
G1 X167.571 Y100.930 E0.08994
G1 X168.470 Y102.738 E0.06330
G1 X168.565 Y103.478 E0.02340
G1 X168.565 Y105.058 E0.04952
G1 X168.447 Y105.782 E0.02302
G1 X168.451 Y113.550 E0.24354
G1 X167.724 Y115.746 E0.07253
G1 X167.177 Y116.450 E0.02797
G1 X165.142 Y118.486 E0.09025
G1 X165.005 Y118.592 E0.00544
G1 X164.878 Y118.754 E0.00645
G1 X164.011 Y119.596 E0.03789
G1 X163.036 Y120.592 E0.04370
G1 X162.359 Y121.092 E0.02639
G1 X161.936 Y121.303 E0.01482
G1 X161.734 Y121.441 E0.00768
G1 X160.732 Y121.871 E0.03419
G1 X158.413 Y122.025 E0.07288
G1 X157.444 Y122.019 E0.03038
G1 X156.717 Y122.138 E0.02310
G1 X155.795 Y122.138 E0.02891
G1 X155.236 Y122.023 E0.01788
G1 X153.619 Y122.021 E0.05072
G1 X152.963 Y122.134 E0.02087
G1 X151.845 Y122.122 E0.03507
G1 X150.467 Y121.717 E0.04501
G1 X150.130 Y121.524 E0.01219
G1 X148.676 Y121.524 E0.04561
G1 X147.796 Y121.413 E0.02780
G1 X146.038 Y120.598 E0.06075
G1 X144.697 Y119.318 E0.05812
G1 X144.088 Y118.266 E0.03812
G1 X143.794 Y117.153 E0.03611
G1 X143.777 Y116.852 E0.00943
G1 X143.562 Y116.822 E0.00680
G1 X141.804 Y116.225 E0.05822
G1 X140.915 Y115.568 E0.03465
G1 X140.042 Y114.650 E0.03972
G1 X138.406 Y114.653 E0.05130
G1 X137.848 Y114.538 E0.01786
G1 X137.025 Y114.532 E0.02580
G1 X136.085 Y114.382 E0.02987
G1 X134.249 Y113.446 E0.06461
G1 X133.026 Y112.230 E0.05409
G1 X132.494 Y112.320 E0.01692
G1 X131.522 Y112.325 E0.03047
G1 X130.952 Y112.210 E0.01824
G1 X130.140 Y112.204 E0.02546
G1 X129.265 Y112.078 E0.02771
G1 X127.355 Y111.122 E0.06698
G1 X126.122 Y109.900 E0.05443
G1 X125.594 Y109.991 E0.01677
G1 X124.623 Y109.997 E0.03047
G1 X124.053 Y109.881 E0.01823
G1 X123.272 Y109.878 E0.02448
G1 X122.438 Y109.770 E0.02638
G1 X120.624 Y108.914 E0.06288
G1 X119.701 Y108.042 E0.03982
G1 X115.441 Y108.048 E0.13357
G1 X114.831 Y108.607 E0.02593
G1 X114.493 Y108.809 E0.01236
G1 X114.276 Y108.977 E0.00861
G1 X113.349 Y109.520 E0.03367
G1 X112.064 Y109.859 E0.04170
G1 X111.310 Y109.876 E0.02364
G1 X111.026 Y110.357 E0.01753
G1 X110.252 Y111.127 E0.03422
G1 X109.524 Y111.635 E0.02784
G1 X107.927 Y112.166 E0.05275
G1 X107.687 Y112.190 E0.00757
G1 X107.493 Y112.797 E0.01996
G1 X107.406 Y112.969 E0.00604
G1 X107.397 Y115.543 E0.08071
G1 X107.410 Y115.759 E0.00681
G1 X107.320 Y117.651 E0.05938
G1 X106.900 Y118.840 E0.03953
G1 X106.182 Y119.881 E0.03966
G1 X105.075 Y120.821 E0.04553
G1 X103.608 Y121.424 E0.04973
G1 X102.683 Y121.527 E0.02916
G1 X102.303 Y121.509 E0.01194
G1 X102.143 Y121.524 E0.00505
G1 X95.233 Y121.521 E0.21666
G1 X94.510 Y121.638 E0.02296
G1 X92.886 Y121.638 E0.05093
G1 X91.720 Y121.391 E0.03736
G1 X90.364 Y120.626 E0.04883
G1 X89.198 Y119.450 E0.05191
G1 X88.552 Y118.503 E0.03596
G1 X88.278 Y117.778 E0.02427
G1 X87.075 Y116.575 E0.05337
G1 X86.082 Y116.161 E0.03373
G1 X85.353 Y115.611 E0.02863
G1 X84.172 Y114.410 E0.05281
G1 X83.592 Y113.442 E0.03539
G1 X83.269 Y112.364 E0.03528
G1 X83.228 Y111.076 E0.04040
G1 X83.315 Y110.551 E0.01668
G1 X83.095 Y110.060 E0.01688
G1 X82.839 Y108.782 E0.04087
G1 X82.852 Y100.663 E0.25455
G1 X83.150 Y99.413 E0.04030
G1 X83.771 Y98.270 E0.04079
G1 X86.272 Y95.744 E0.11146
G1 X86.540 Y96.010 F10800.000
G1 F1200.000
G1 X87.523 Y95.404 E0.03621
G1 X88.623 Y95.063 E0.03612
G1 X89.833 Y95.018 E0.03798
G1 X91.180 Y93.716 E0.05873
G1 X92.102 Y93.194 E0.03322
G1 X92.497 Y93.059 E0.01309
G1 X92.696 Y92.967 E0.00688
G1 X93.459 Y92.740 E0.02494
G1 X95.372 Y92.673 E0.06004
G1 X96.544 Y92.679 E0.03675
G1 X96.709 Y92.450 E0.00886
G1 X97.233 Y91.911 E0.02357
G1 X98.390 Y91.179 E0.04292
G1 X99.492 Y90.872 E0.03586
G1 X100.608 Y90.858 E0.03501
G1 X100.982 Y90.218 E0.02324
G1 X101.708 Y89.502 E0.03198
G1 X102.288 Y89.084 E0.02241
G1 X103.850 Y88.554 E0.05172
G1 X104.307 Y88.528 E0.01436
G1 X104.505 Y87.826 E0.02285
G1 X105.161 Y86.699 E0.04089
G1 X107.413 Y84.416 E0.10057
G1 X108.963 Y83.575 E0.05527
G1 X109.531 Y83.449 E0.01824
G1 X110.169 Y83.414 E0.02006
G1 X110.539 Y83.360 E0.01172
G1 X120.559 Y83.363 E0.31417
G1 X121.217 Y83.248 E0.02092
G1 X122.200 Y83.255 E0.03084
G1 X123.363 Y83.561 E0.03770
G1 X124.380 Y84.174 E0.03723
G1 X127.406 Y87.213 E0.13448
G1 X128.000 Y88.105 E0.03359
G1 X128.151 Y88.517 E0.01376
G1 X130.153 Y88.517 E0.06276
G1 X131.523 Y88.820 E0.04398
G1 X132.849 Y89.595 E0.04817
G1 X134.091 Y90.847 E0.05529
G1 X135.667 Y90.848 E0.04943
G1 X136.318 Y90.734 E0.02073
G1 X137.170 Y90.731 E0.02669
G1 X138.075 Y90.898 E0.02887
G1 X139.498 Y91.670 E0.05076
G1 X140.955 Y93.176 E0.06571
G1 X143.927 Y93.174 E0.09318
G1 X144.964 Y93.350 E0.03299
G1 X146.591 Y94.208 E0.05766
G1 X147.898 Y95.503 E0.05769
G1 X160.872 Y95.503 E0.40679
G1 X162.893 Y96.171 E0.06672
G1 X163.554 Y96.684 E0.02626
G1 X164.506 Y97.663 E0.04279
G1 X164.949 Y98.362 E0.02596
G1 X165.216 Y99.108 E0.02484
G1 X167.283 Y101.175 E0.09165
G1 X168.100 Y102.818 E0.05754
G1 X168.188 Y103.491 E0.02127
G1 X168.188 Y105.042 E0.04864
G1 X168.070 Y105.751 E0.02254
G1 X168.074 Y113.520 E0.24359
G1 X167.406 Y115.541 E0.06673
G1 X166.902 Y116.192 E0.02584
G1 X164.885 Y118.209 E0.08943
G1 X164.736 Y118.322 E0.00586
G1 X164.605 Y118.494 E0.00679
G1 X163.731 Y119.343 E0.03821
G1 X163.616 Y119.478 E0.00553
G1 X162.780 Y120.314 E0.03709
G1 X162.150 Y120.778 E0.02453
G1 X161.746 Y120.975 E0.01408
G1 X161.537 Y121.119 E0.00796
G1 X160.615 Y121.511 E0.03142
G1 X158.397 Y121.648 E0.06968
G1 X157.414 Y121.642 E0.03082
G1 X156.701 Y121.761 E0.02265
G1 X155.816 Y121.761 E0.02777
G1 X155.277 Y121.646 E0.01726
G1 X153.586 Y121.644 E0.05304
G1 X152.949 Y121.757 E0.02028
G1 X151.876 Y121.746 E0.03365
G1 X150.600 Y121.363 E0.04176
G1 X150.235 Y121.147 E0.01329
G1 X148.688 Y121.147 E0.04853
G1 X147.873 Y121.043 E0.02574
G1 X146.226 Y120.270 E0.05704
G1 X145.009 Y119.105 E0.05284
G1 X144.446 Y118.145 E0.03490
G1 X144.165 Y117.080 E0.03451
G1 X144.149 Y116.479 E0.01885
G1 X143.649 Y116.454 E0.01569
G1 X142.003 Y115.903 E0.05443
G1 X141.177 Y115.296 E0.03215
G1 X140.204 Y114.272 E0.04428
M73 Q1 S43
G1 X138.426 Y114.276 E0.05573
G1 X137.890 Y114.161 E0.01721
G1 X137.070 Y114.157 E0.02569
G1 X136.174 Y114.015 E0.02846
M73 P1 R43
G1 X134.448 Y113.125 E0.06087
G1 X133.402 Y112.075 E0.04649
G1 X133.222 Y111.812 E0.00999
G1 X132.475 Y111.943 E0.02376
G1 X131.541 Y111.948 E0.02930
G1 X130.992 Y111.833 E0.01757
G1 X130.181 Y111.829 E0.02545
G1 X129.350 Y111.709 E0.02631
G1 X127.553 Y110.800 E0.06316
G1 X126.420 Y109.664 E0.05029
G1 X126.291 Y109.486 E0.00688
G1 X125.575 Y109.614 E0.02281
G1 X124.641 Y109.620 E0.02929
G1 X124.093 Y109.504 E0.01756
G1 X123.309 Y109.503 E0.02460
G1 X122.516 Y109.400 E0.02505
G1 X120.815 Y108.588 E0.05912
G1 X119.854 Y107.665 E0.04179
G1 X115.293 Y107.671 E0.14301
G1 X114.620 Y108.293 E0.02871
G1 X114.278 Y108.498 E0.01250
G1 X114.074 Y108.658 E0.00816
G1 X113.182 Y109.181 E0.03241
G1 X111.992 Y109.488 E0.03852
G1 X111.088 Y109.501 E0.02836
G1 X110.741 Y110.109 E0.02194
G1 X109.998 Y110.847 E0.03285
G1 X109.332 Y111.310 E0.02542
G1 X107.838 Y111.799 E0.04928
G1 X107.409 Y111.822 E0.01347
G1 X107.139 Y112.664 E0.02775
G1 X107.029 Y112.873 E0.00739
G1 X107.020 Y115.555 E0.08409
G1 X107.033 Y115.754 E0.00627
G1 X106.955 Y117.552 E0.05643
G1 X106.553 Y118.690 E0.03782
G1 X105.887 Y119.645 E0.03653
G1 X104.904 Y120.483 E0.04050
G1 X103.490 Y121.064 E0.04792
G1 X102.661 Y121.150 E0.02615
G1 X102.294 Y121.131 E0.01150
G1 X102.133 Y121.147 E0.00509
G1 X95.201 Y121.144 E0.21733
G1 X94.494 Y121.261 E0.02248
G1 X92.905 Y121.261 E0.04984
G1 X91.878 Y121.048 E0.03288
G1 X90.612 Y120.341 E0.04546
G1 X89.499 Y119.223 E0.04944
G1 X88.877 Y118.310 E0.03466
G1 X88.604 Y117.571 E0.02470
G1 X87.289 Y116.256 E0.05832
G1 X86.250 Y115.822 E0.03528
G1 X85.593 Y115.320 E0.02593
G1 X84.457 Y114.162 E0.05086
G1 X83.947 Y113.311 E0.03111
G1 X83.638 Y112.280 E0.03375
G1 X83.605 Y111.086 E0.03746
G1 X83.707 Y110.500 E0.01863
G1 X83.460 Y109.962 E0.01857
G1 X83.216 Y108.763 E0.03837
G1 X83.229 Y100.687 E0.25323
G1 X83.511 Y99.527 E0.03742
G1 X84.088 Y98.475 E0.03763
G1 X86.497 Y96.052 E0.10712
G1 X86.764 Y96.319 F10800.000
G1 F1200.000
G1 X86.815 Y96.267 E0.00229
G1 X87.696 Y95.740 E0.03218
G1 X88.708 Y95.431 E0.03318
G1 X89.992 Y95.390 E0.04026
G1 X91.387 Y94.032 E0.06106
G1 X92.271 Y93.532 E0.03185
G1 X92.638 Y93.410 E0.01214
G1 X92.821 Y93.323 E0.00634
G1 X93.497 Y93.116 E0.02217
G1 X95.382 Y93.049 E0.05912
G1 X96.700 Y93.057 E0.04134
G1 X96.848 Y92.905 E0.00665
G1 X96.992 Y92.699 E0.00791
G1 X97.454 Y92.217 E0.02094
G1 X98.567 Y91.513 E0.04128
G1 X99.566 Y91.243 E0.03244
G1 X100.829 Y91.234 E0.03961
G1 X101.266 Y90.467 E0.02766
G1 X101.962 Y89.781 E0.03066
G1 X102.484 Y89.407 E0.02012
G1 X103.941 Y88.921 E0.04817
G1 X104.599 Y88.898 E0.02063
G1 X104.845 Y87.992 E0.02943
G1 X105.447 Y86.946 E0.03784
G1 X107.662 Y84.700 E0.09892
G1 X109.070 Y83.938 E0.05021
G1 X109.596 Y83.821 E0.01691
G1 X110.207 Y83.789 E0.01918
G1 X110.554 Y83.737 E0.01099
G1 X120.593 Y83.740 E0.31478
G1 X121.232 Y83.626 E0.02035
G1 X122.174 Y83.632 E0.02955
G1 X123.193 Y83.899 E0.03304
G1 X124.130 Y84.457 E0.03418
G1 X127.126 Y87.466 E0.13313
G1 X127.671 Y88.292 E0.03103
G1 X127.881 Y88.894 E0.02000
G1 X130.133 Y88.894 E0.07061
G1 X131.360 Y89.161 E0.03936
G1 X132.599 Y89.879 E0.04491
G1 X133.934 Y91.224 E0.05941
G1 X135.701 Y91.226 E0.05542
G1 X136.337 Y91.111 E0.02024
G1 X137.153 Y91.108 E0.02559
G1 X137.976 Y91.263 E0.02627
G1 X139.247 Y91.952 E0.04533
G1 X140.795 Y93.553 E0.06983
G1 X143.913 Y93.551 E0.09774
G1 X144.816 Y93.698 E0.02870
G1 X146.390 Y94.528 E0.05577
G1 X147.742 Y95.880 E0.05995
G1 X160.842 Y95.880 E0.41077
G1 X162.688 Y96.489 E0.06093
G1 X163.293 Y96.957 E0.02400
G1 X164.221 Y97.911 E0.04173
G1 X164.617 Y98.544 E0.02341
G1 X164.888 Y99.314 E0.02559
G1 X166.995 Y101.420 E0.09340
G1 X167.730 Y102.899 E0.05179
G1 X167.811 Y103.503 E0.01912
G1 X167.811 Y105.025 E0.04773
G1 X167.693 Y105.719 E0.02205
G1 X167.697 Y113.490 E0.24366
G1 X167.088 Y115.336 E0.06095
G1 X166.627 Y115.934 E0.02369
G1 X164.629 Y117.932 E0.08857
G1 X164.467 Y118.052 E0.00632
G1 X164.330 Y118.235 E0.00716
G1 X163.454 Y119.086 E0.03831
G1 X163.344 Y119.217 E0.00536
G1 X162.524 Y120.037 E0.03636
G1 X161.942 Y120.463 E0.02261
G1 X161.558 Y120.648 E0.01336
G1 X161.340 Y120.797 E0.00828
G1 X160.499 Y121.151 E0.02862
G1 X158.382 Y121.271 E0.06649
G1 X157.382 Y121.265 E0.03133
G1 X156.685 Y121.384 E0.02219
G1 X155.837 Y121.384 E0.02658
G1 X155.319 Y121.269 E0.01662
G1 X153.551 Y121.267 E0.05545
G1 X152.934 Y121.380 E0.01966
G1 X151.907 Y121.369 E0.03221
G1 X150.735 Y121.011 E0.03843
G1 X150.344 Y120.770 E0.01440
G1 X148.700 Y120.770 E0.05154
G1 X147.952 Y120.673 E0.02365
G1 X146.417 Y119.943 E0.05329
G1 X145.290 Y118.853 E0.04915
G1 X144.786 Y117.979 E0.03164
G1 X144.536 Y117.010 E0.03139
G1 X144.523 Y116.109 E0.02825
G1 X143.738 Y116.086 E0.02460
G1 X142.201 Y115.581 E0.05075
G1 X141.438 Y115.023 E0.02965
G1 X140.581 Y114.126 E0.03889
G1 X140.413 Y113.843 E0.01030
G1 X140.059 Y113.899 E0.01124
G1 X138.448 Y113.899 E0.05052
G1 X137.932 Y113.784 E0.01657
G1 X137.115 Y113.782 E0.02563
G1 X136.264 Y113.647 E0.02702
G1 X134.650 Y112.805 E0.05707
G1 X133.685 Y111.825 E0.04313
G1 X133.439 Y111.454 E0.01395
G1 X133.071 Y111.453 E0.01155
G1 X132.456 Y111.566 E0.01962
G1 X131.560 Y111.571 E0.02808
G1 X131.034 Y111.456 E0.01688
G1 X130.221 Y111.454 E0.02549
G1 X129.435 Y111.340 E0.02489
G1 X127.752 Y110.478 E0.05929
G1 X126.702 Y109.414 E0.04688
G1 X126.506 Y109.125 E0.01096
G1 X126.172 Y109.124 E0.01047
G1 X125.556 Y109.237 E0.01962
G1 X124.661 Y109.242 E0.02808
G1 X124.134 Y109.127 E0.01689
G1 X123.345 Y109.127 E0.02476
G1 X122.595 Y109.030 E0.02369
G1 X121.007 Y108.262 E0.05531
G1 X120.008 Y107.287 E0.04378
G1 X115.094 Y107.294 E0.15407
G1 X114.974 Y107.453 E0.00623
G1 X114.409 Y107.980 E0.02421
G1 X114.062 Y108.187 E0.01268
G1 X113.871 Y108.340 E0.00768
G1 X113.015 Y108.842 E0.03111
G1 X111.923 Y109.117 E0.03529
G1 X110.864 Y109.125 E0.03322
G1 X110.455 Y109.861 E0.02638
G1 X109.744 Y110.568 E0.03144
G1 X109.141 Y110.983 E0.02296
G1 X107.750 Y111.431 E0.04582
G1 X107.132 Y111.450 E0.01939
G1 X106.786 Y112.531 E0.03558
G1 X106.653 Y112.774 E0.00870
G1 X106.642 Y115.568 E0.08761
G1 X106.656 Y115.751 E0.00575
G1 X106.589 Y117.456 E0.05350
G1 X106.229 Y118.496 E0.03450
G1 X105.592 Y119.409 E0.03491
G1 X104.684 Y120.175 E0.03725
G1 X103.376 Y120.704 E0.04425
G1 X102.641 Y120.774 E0.02314
G1 X102.285 Y120.752 E0.01117
G1 X102.122 Y120.770 E0.00514
G1 X95.169 Y120.767 E0.21800
G1 X94.478 Y120.884 E0.02199
