; generated by PrusaSlicer 2.3.1+linux-x64 on 2021-06-07 at 10:28:05 UTC

; 

; external perimeters extrusion width = 0.45mm
; perimeters extrusion width = 0.45mm
; infill extrusion width = 0.45mm
; solid infill extrusion width = 0.45mm
; top infill extrusion width = 0.40mm
; support material extrusion width = 0.35mm
; first layer extrusion width = 0.42mm

M73 P0 R67
M73 Q0 S68
M201 X1000 Y1000 Z200 E5000 ; sets maximum accelerations, mm/sec^2
M203 X200 Y200 Z12 E120 ; sets maximum feedrates, mm/sec
M204 P1250 R1250 T1250 ; sets acceleration (P, T) and retract acceleration (R), mm/sec^2
M205 X8.00 Y8.00 Z0.40 E4.50 ; sets the jerk limits, mm/sec
M205 S0 T0 ; sets the minimum extruding and travel feed rate, mm/sec
M107
;TYPE:Custom
M862.3 P "MK3S" ; printer model check
M862.1 P0.4 ; nozzle diameter check
M115 U3.9.3 ; tell printer latest fw version
G90 ; use absolute coordinates
M83 ; extruder relative mode
M104 S205 ; set extruder temp
M140 S70 ; set bed temp
M190 S70 ; wait for bed temp
M109 S205 ; wait for extruder temp
G28 W ; home all without mesh bed level
G80 ; mesh bed leveling
G1 Y-3.0 F1000.0 ; go outside print area
G92 E0.0
G1 X60.0 E9.0 F1000.0 ; intro line
M73 Q0 S67
G1 X100.0 E12.5 F1000.0 ; intro line
G92 E0.0
M221 S95

; Don't change E values below. Excessive value can damage the printer.
M907 E430 ; set extruder motor current
G21 ; set units to millimeters
G90 ; use absolute coordinates
M83 ; use relative distances for extrusion
M900 K0.05 ; Filament gcode LA 1.5
M900 K30 ; Filament gcode LA 1.0
;LAYER_CHANGE
;Z:0.2
;HEIGHT:0.2
;BEFORE_LAYER_CHANGE
G92 E0.0
;0.2


G1 E-0.80000 F2100.000
G1 Z0.400 F10800.000
;AFTER_LAYER_CHANGE
;0.2
; printing object wheel-outer.stl id:1 copy 0
G1 X128.861 Y115.258
G1 Z0.200
G1 E0.80000 F2100.000
M204 S1000
;TYPE:Support material
;WIDTH:0.42
G1 F1200.000
G1 X141.568 Y115.258 E0.39843
G1 X142.107 Y114.719 E0.02389
G1 X128.562 Y114.719 E0.42468
G1 X128.024 Y114.180 E0.02389
G1 X142.646 Y114.180 E0.45846
G1 X142.967 Y113.858 E0.01427
G1 X142.967 Y113.642 E0.00680
G1 X127.702 Y113.642 E0.47864
G1 X127.702 Y113.177 E0.01457
G1 X124.692 Y113.177 E0.09438
G1 X124.618 Y113.103 E0.00328
G1 X146.051 Y113.103 E0.67204
G1 X146.590 Y112.564 E0.02389
G1 X124.079 Y112.564 E0.70582
G1 X123.540 Y112.025 E0.02389
G1 X147.129 Y112.026 E0.73960
G1 X147.624 Y111.530 E0.02198
G1 X147.624 Y111.487 E0.00135
G1 X123.045 Y111.487 E0.77068
G1 X123.045 Y110.948 E0.01689
G1 X147.624 Y110.948 E0.77068
G1 X147.624 Y110.848 E0.00313
G1 X148.306 Y110.848 E0.02137
G1 X148.745 Y110.409 E0.01946
G1 X121.924 Y110.409 E0.84094
G1 X121.386 Y109.871 E0.02389
G1 X149.284 Y109.871 E0.87472
G1 X149.822 Y109.332 E0.02389
G1 X120.847 Y109.332 E0.90850
G1 X120.716 Y109.201 E0.00580
G1 X120.716 Y108.793 E0.01279
G1 X149.953 Y108.793 E0.91670
G1 X149.953 Y108.255 E0.01689
G1 X120.716 Y108.255 E0.91670
G1 X120.716 Y107.716 E0.01689
G1 X149.953 Y107.716 E0.91670
G1 X149.953 Y107.177 E0.01689
G1 X120.716 Y107.177 E0.91670
G1 X120.716 Y106.639 E0.01689
G1 X149.953 Y106.639 E0.91670
G1 X149.953 Y106.191 E0.01403
G1 X150.635 Y106.191 E0.02137
G1 X150.726 Y106.100 E0.00404
G1 X119.943 Y106.100 E0.96516
G1 X119.405 Y105.561 E0.02389
G1 X151.264 Y105.561 E0.99894
G1 X151.803 Y105.023 E0.02389
G1 X118.866 Y105.023 E1.03272
G1 X118.388 Y104.544 E0.02121
G1 X118.388 Y104.484 E0.00189
G1 X152.282 Y104.484 E1.06272
G1 X152.282 Y103.945 E0.01689
G1 X118.388 Y103.945 E1.06272
G1 X118.388 Y103.407 E0.01689
G1 X152.282 Y103.407 E1.06272
G1 X152.282 Y102.868 E0.01689
G1 X118.388 Y102.868 E1.06272
M73 Q1 S67
G1 X118.388 Y102.329 E0.01689
G1 X152.282 Y102.329 E1.06272
M73 P1 R67
G1 X152.282 Y101.790 E0.01689
G1 X118.388 Y101.790 E1.06272
G1 X118.388 Y101.252 E0.01689
G1 X152.282 Y101.252 E1.06272
G1 X152.282 Y100.713 E0.01689
G1 X118.388 Y100.713 E1.06272
G1 X118.388 Y100.174 E0.01689
G1 X152.282 Y100.174 E1.06272
G1 X152.282 Y99.636 E0.01689
G1 X118.388 Y99.636 E1.06272
G1 X118.388 Y99.097 E0.01689
G1 X152.282 Y99.097 E1.06272
M73 P1 R66
G1 X152.282 Y98.558 E0.01689
G1 X118.388 Y98.558 E1.06272
G1 X118.388 Y98.020 E0.01689
G1 X152.282 Y98.020 E1.06272
G1 X152.282 Y97.481 E0.01689
G1 X118.388 Y97.481 E1.06272
G1 X118.388 Y96.942 E0.01689
G1 X152.282 Y96.942 E1.06272
G1 X152.282 Y96.404 E0.01689
G1 X118.388 Y96.404 E1.06272
G1 X118.388 Y95.865 E0.01689
G1 X152.282 Y95.865 E1.06272
M73 Q1 S66
G1 X152.282 Y95.326 E0.01689
G1 X118.388 Y95.326 E1.06272
G1 X118.388 Y94.788 E0.01689
G1 X152.282 Y94.788 E1.06272
G1 X152.282 Y94.249 E0.01689
G1 X118.388 Y94.249 E1.06272
G1 X118.388 Y93.710 E0.01689
G1 X152.282 Y93.710 E1.06272
G1 X152.282 Y93.172 E0.01689
G1 X118.388 Y93.172 E1.06272
G1 X118.388 Y92.633 E0.01689
G1 X152.282 Y92.633 E1.06272
G1 X152.282 Y92.572 E0.00189
G1 X151.803 Y92.094 E0.02121
G1 X118.866 Y92.094 E1.03273
G1 X119.405 Y91.555 E0.02389
G1 X151.265 Y91.555 E0.99895
G1 X150.726 Y91.017 E0.02389
G1 X119.943 Y91.017 E0.96517
G1 X120.034 Y90.926 E0.00405
G1 X120.716 Y90.926 E0.02137
G1 X120.716 Y90.478 E0.01403
G1 X149.953 Y90.478 E0.91670
G1 X149.953 Y89.939 E0.01689
G1 X120.716 Y89.939 E0.91670
M73 P2 R66
M73 Q2 S66
G1 X120.716 Y89.401 E0.01689
G1 X149.953 Y89.401 E0.91670
G1 X149.953 Y88.862 E0.01689
G1 X120.716 Y88.862 E0.91670
G1 X120.716 Y88.323 E0.01689
G1 X149.953 Y88.323 E0.91670
G1 X149.953 Y87.915 E0.01279
G1 X149.822 Y87.785 E0.00580
G1 X120.847 Y87.785 E0.90850
G1 X121.386 Y87.246 E0.02389
G1 X149.284 Y87.246 E0.87472
G1 X148.745 Y86.707 E0.02389
G1 X121.924 Y86.707 E0.84094
G1 X122.363 Y86.268 E0.01946
G1 X123.045 Y86.268 E0.02137
G1 X123.045 Y86.169 E0.00313
G1 X147.624 Y86.169 E0.77068
G1 X147.624 Y85.630 E0.01689
G1 X123.045 Y85.630 E0.77068
G1 X123.045 Y85.587 E0.00135
G1 X123.540 Y85.091 E0.02198
G1 X147.129 Y85.091 E0.73960
G1 X146.590 Y84.553 E0.02389
G1 X124.079 Y84.553 E0.70582
G1 X124.618 Y84.014 E0.02389
G1 X146.051 Y84.014 E0.67204
G1 X145.978 Y83.940 E0.00328
G1 X142.967 Y83.940 E0.09438
G1 X142.967 Y83.475 E0.01457
G1 X127.702 Y83.475 E0.47864
G1 X127.702 Y83.258 E0.00680
G1 X128.024 Y82.937 E0.01427
G1 X142.646 Y82.937 E0.45846
G1 X142.107 Y82.398 E0.02389
G1 X128.562 Y82.398 E0.42468
G1 X129.101 Y81.859 E0.02389
G1 X141.808 Y81.859 E0.39843
; stop printing object wheel-outer.stl id:1 copy 0
; printing object wheel-inner.stl id:0 copy 0
;WIPE_START
G1 F8640.000
G1 X138.517 Y81.859 E-0.76000
;WIPE_END
G1 E-0.04000 F2100.000
G1 Z0.600 F10800.000
G1 X103.215 Y128.809
G1 Z0.200
G1 E0.80000 F2100.000
G1 F1200.000
G1 X120.231 Y128.809 E0.53355
G1 X120.770 Y128.270 E0.02389
G1 X102.916 Y128.270 E0.55980
G1 X102.377 Y127.731 E0.02389
G1 X121.309 Y127.731 E0.59358
G1 X121.804 Y127.236 E0.02198
G1 X121.804 Y127.193 E0.00135
G1 X101.882 Y127.193 E0.62466
G1 X101.882 Y126.654 E0.01689
G1 X121.804 Y126.654 E0.62466
G1 X121.804 Y126.554 E0.00313
G1 X122.486 Y126.554 E0.02137
G1 X122.925 Y126.115 E0.01946
G1 X100.761 Y126.115 E0.69492
G1 X100.222 Y125.577 E0.02389
G1 X123.463 Y125.577 E0.72870
G1 X124.002 Y125.038 E0.02389
G1 X99.684 Y125.038 E0.76248
G1 X99.553 Y124.907 E0.00580
G1 X99.553 Y124.499 E0.01279
G1 X124.133 Y124.499 E0.77068
G1 X124.133 Y124.226 E0.00858
G1 X124.814 Y124.226 E0.02137
G1 X125.079 Y123.960 E0.01175
G1 X98.606 Y123.960 E0.83004
G1 X98.068 Y123.422 E0.02389
G1 X125.618 Y123.422 E0.86382
M73 P2 R65
G1 X126.157 Y122.883 E0.02389
G1 X97.529 Y122.883 E0.89760
G1 X97.224 Y122.579 E0.01350
G1 X97.224 Y122.344 E0.00734
G1 X126.461 Y122.344 E0.91670
G1 X126.461 Y121.806 E0.01689
G1 X97.224 Y121.806 E0.91670
G1 X97.224 Y121.267 E0.01689
G1 X126.461 Y121.267 E0.91670
G1 X126.461 Y120.728 E0.01689
G1 X97.224 Y120.728 E0.91670
G1 X97.224 Y120.190 E0.01689
G1 X126.461 Y120.190 E0.91670
M73 P3 R65
M73 Q3 S66
G1 X126.461 Y119.651 E0.01689
G1 X97.224 Y119.651 E0.91670
M73 Q3 S65
G1 X97.224 Y119.112 E0.01689
G1 X126.461 Y119.112 E0.91670
G1 X126.461 Y118.574 E0.01689
G1 X97.224 Y118.574 E0.91670
G1 X97.224 Y118.035 E0.01689
G1 X126.461 Y118.035 E0.91670
G1 X126.461 Y117.496 E0.01689
G1 X97.224 Y117.496 E0.91670
G1 X97.224 Y116.958 E0.01689
G1 X126.461 Y116.958 E0.91670
G1 X126.461 Y116.419 E0.01689
G1 X97.224 Y116.419 E0.91670
G1 X97.224 Y115.880 E0.01689
G1 X126.461 Y115.880 E0.91670
G1 X126.461 Y115.342 E0.01689
G1 X97.224 Y115.342 E0.91670
G1 X97.224 Y114.803 E0.01689
G1 X126.461 Y114.803 E0.91670
G1 X126.461 Y114.264 E0.01689
G1 X97.224 Y114.264 E0.91670
G1 X97.224 Y113.725 E0.01689
G1 X126.461 Y113.725 E0.91670
G1 X126.461 Y113.187 E0.01689
G1 X97.224 Y113.187 E0.91670
G1 X97.224 Y112.648 E0.01689
G1 X126.461 Y112.648 E0.91670
G1 X126.461 Y112.109 E0.01689
G1 X97.224 Y112.109 E0.91670
G1 X97.224 Y111.571 E0.01689
G1 X126.461 Y111.571 E0.91670
G1 X126.461 Y111.032 E0.01689
G1 X97.224 Y111.032 E0.91670
G1 X97.224 Y110.493 E0.01689
G1 X126.461 Y110.493 E0.91670
G1 X126.461 Y109.955 E0.01689
G1 X97.224 Y109.955 E0.91670
G1 X97.224 Y109.416 E0.01689
G1 X126.461 Y109.416 E0.91670
G1 X126.461 Y108.877 E0.01689
G1 X97.224 Y108.877 E0.91670
G1 X97.224 Y108.339 E0.01689
G1 X126.461 Y108.339 E0.91670
G1 X126.461 Y107.800 E0.01689
G1 X97.224 Y107.800 E0.91670
G1 X97.224 Y107.261 E0.01689
G1 X126.461 Y107.261 E0.91670
G1 X126.461 Y106.723 E0.01689
G1 X97.224 Y106.723 E0.91670
G1 X97.224 Y106.184 E0.01689
G1 X126.461 Y106.184 E0.91670
G1 X126.461 Y105.950 E0.00734
G1 X126.157 Y105.645 E0.01350
G1 X97.529 Y105.645 E0.89761
M73 P4 R65
M73 Q4 S65
G1 X98.068 Y105.107 E0.02389
G1 X125.618 Y105.107 E0.86383
G1 X125.079 Y104.568 E0.02389
G1 X98.606 Y104.568 E0.83005
G1 X98.871 Y104.303 E0.01175
G1 X99.553 Y104.303 E0.02137
G1 X99.553 Y104.029 E0.00858
G1 X124.133 Y104.029 E0.77068
G1 X124.133 Y103.621 E0.01279
G1 X124.002 Y103.490 E0.00580
G1 X99.684 Y103.490 E0.76249
G1 X100.222 Y102.952 E0.02389
G1 X123.463 Y102.952 E0.72871
G1 X122.925 Y102.413 E0.02389
G1 X100.761 Y102.413 E0.69492
G1 X101.200 Y101.974 E0.01946
G1 X101.882 Y101.974 E0.02137
G1 X101.882 Y101.874 E0.00313
G1 X121.804 Y101.874 E0.62466
G1 X121.804 Y101.336 E0.01689
G1 X101.882 Y101.336 E0.62466
M73 P4 R64
G1 X101.882 Y101.293 E0.00135
G1 X102.377 Y100.797 E0.02198
G1 X121.309 Y100.797 E0.59358
G1 X120.770 Y100.258 E0.02389
G1 X102.916 Y100.258 E0.55980
G1 X103.454 Y99.720 E0.02389
G1 X120.471 Y99.720 E0.53355
; stop printing object wheel-inner.stl id:0 copy 0
;LAYER_CHANGE
;Z:0.5
;HEIGHT:0.3
;BEFORE_LAYER_CHANGE
G92 E0.0
;0.5


;WIPE_START
G1 F8640.000
G1 X117.180 Y99.720 E-0.76000
;WIPE_END
G1 E-0.04000 F2100.000
G1 Z0.600 F10800.000
;AFTER_LAYER_CHANGE
;0.5
M104 S195 ; set temperature
M140 S65 ; set bed temperature
; printing object wheel-outer.stl id:1 copy 0
G1 X149.077 Y103.363
G1 Z0.500
G1 E0.80000 F2100.000
;TYPE:Support material interface
;WIDTH:0.35
G1 F2400.000
G1 X149.077 Y93.901 E0.33708
G1 X148.548 Y93.901 E0.01883
G1 X148.548 Y103.215 E0.33181
G1 X148.020 Y103.215 E0.01883
G1 X148.020 Y93.901 E0.33181
G1 X147.491 Y93.901 E0.01883
G1 X147.491 Y103.215 E0.33181
G1 X146.977 Y103.215 E0.01830
G1 X146.977 Y107.873 E0.16590
G1 X146.962 Y107.873 E0.00053
G1 X146.962 Y89.244 E0.66362
G1 X146.434 Y89.244 E0.01883
G1 X146.434 Y107.873 E0.66362
G1 X145.905 Y107.873 E0.01883
G1 X145.905 Y89.244 E0.66362
G1 X145.377 Y89.244 E0.01883
G1 X145.377 Y107.873 E0.66362
G1 X144.848 Y107.873 E0.01883
G1 X144.848 Y89.244 E0.66362
G1 X144.649 Y89.244 E0.00711
G1 X144.649 Y86.916 E0.08295
G1 X144.320 Y86.916 E0.01172
G1 X144.320 Y110.201 E0.82952
G1 X143.791 Y110.201 E0.01883
G1 X143.791 Y86.916 E0.82952
G1 X143.263 Y86.916 E0.01883
G1 X143.263 Y110.201 E0.82952
G1 X142.734 Y110.201 E0.01883
G1 X142.734 Y86.916 E0.82952
M73 Q4 S64
G1 X142.206 Y86.916 E0.01883
G1 X142.206 Y110.201 E0.82952
G1 X141.677 Y110.201 E0.01883
G1 X141.677 Y86.916 E0.82952
G1 X141.148 Y86.916 E0.01883
G1 X141.148 Y110.201 E0.82952
G1 X140.620 Y110.201 E0.01883
G1 X140.620 Y86.916 E0.82952
G1 X140.091 Y86.916 E0.01883
G1 X140.091 Y110.201 E0.82952
G1 X139.992 Y110.201 E0.00355
G1 X139.992 Y112.530 E0.08295
G1 X139.563 Y112.530 E0.01527
G1 X139.563 Y84.587 E0.99542
G1 X139.034 Y84.587 E0.01883
G1 X139.034 Y112.530 E0.99542
G1 X138.506 Y112.530 E0.01883
G1 X138.506 Y84.587 E0.99542
G1 X137.977 Y84.587 E0.01883
G1 X137.977 Y112.530 E0.99542
G1 X137.449 Y112.530 E0.01883
G1 X137.449 Y84.587 E0.99542
G1 X136.920 Y84.587 E0.01883
G1 X136.920 Y112.530 E0.99542
G1 X136.392 Y112.530 E0.01883
G1 X136.392 Y84.587 E0.99542
G1 X135.863 Y84.587 E0.01883
G1 X135.863 Y112.530 E0.99542
G1 X135.335 Y112.530 E0.01883
G1 X135.335 Y84.587 E0.99542
G1 X134.806 Y84.587 E0.01883
G1 X134.806 Y112.530 E0.99542
G1 X134.277 Y112.530 E0.01883
G1 X134.277 Y84.587 E0.99542
G1 X133.749 Y84.587 E0.01883
G1 X133.749 Y112.530 E0.99542
G1 X133.220 Y112.530 E0.01883
G1 X133.220 Y84.587 E0.99542
G1 X132.692 Y84.587 E0.01883
G1 X132.692 Y112.530 E0.99542
G1 X132.163 Y112.530 E0.01883
G1 X132.163 Y84.587 E0.99542
G1 X131.635 Y84.587 E0.01883
G1 X131.635 Y112.530 E0.99542
G1 X131.106 Y112.530 E0.01883
G1 X131.106 Y84.587 E0.99542
G1 X130.677 Y84.587 E0.01528
G1 X130.677 Y86.916 E0.08295
G1 X130.578 Y86.916 E0.00355
G1 X130.578 Y110.201 E0.82952
G1 X130.049 Y110.201 E0.01883
G1 X130.049 Y86.916 E0.82952
G1 X129.521 Y86.916 E0.01883
G1 X129.521 Y110.201 E0.82952
G1 X128.992 Y110.201 E0.01883
G1 X128.992 Y86.916 E0.82952
G1 X128.464 Y86.916 E0.01883
G1 X128.464 Y110.201 E0.82952
G1 X127.935 Y110.201 E0.01883
G1 X127.935 Y86.916 E0.82952
M73 P5 R64
M73 Q5 S64
G1 X127.406 Y86.916 E0.01883
G1 X127.406 Y110.201 E0.82952
G1 X126.878 Y110.201 E0.01883
G1 X126.878 Y86.916 E0.82952
G1 X126.349 Y86.916 E0.01883
G1 X126.349 Y110.201 E0.82952
G1 X126.020 Y110.201 E0.01172
G1 X126.020 Y107.873 E0.08295
G1 X125.821 Y107.873 E0.00711
G1 X125.821 Y89.244 E0.66362
G1 X125.292 Y89.244 E0.01883
G1 X125.292 Y107.873 E0.66362
G1 X124.764 Y107.873 E0.01883
G1 X124.764 Y89.244 E0.66362
G1 X124.235 Y89.244 E0.01883
G1 X124.235 Y107.873 E0.66362
G1 X123.707 Y107.873 E0.01883
G1 X123.707 Y89.244 E0.66362
G1 X123.692 Y89.244 E0.00053
G1 X123.692 Y93.901 E0.16590
G1 X123.178 Y93.901 E0.01830
G1 X123.178 Y103.215 E0.33181
G1 X122.650 Y103.215 E0.01883
G1 X122.650 Y93.901 E0.33181
G1 X122.121 Y93.901 E0.01883
G1 X122.121 Y103.215 E0.33181
G1 X121.593 Y103.215 E0.01883
G1 X121.593 Y93.753 E0.33708
; stop printing object wheel-outer.stl id:1 copy 0
; printing object wheel-inner.stl id:0 copy 0
;WIPE_START
G1 F8640.000
G1 X121.593 Y97.045 E-0.76000
;WIPE_END
G1 E-0.04000 F2100.000
G1 Z0.900 F10800.000
G1 X123.471 Y121.398
G1 Z0.500
G1 E0.80000 F2100.000
G1 F2400.000
G1 X123.471 Y107.279 E0.50298
G1 X122.942 Y107.279 E0.01883
G1 X122.942 Y121.250 E0.49771
G1 X122.414 Y121.250 E0.01883
G1 X122.414 Y107.279 E0.49771
G1 X121.885 Y107.279 E0.01883
G1 X121.885 Y121.250 E0.49771
G1 X121.357 Y121.250 E0.01883
G1 X121.357 Y107.279 E0.49771
G1 X121.157 Y107.279 E0.00711
G1 X121.157 Y104.950 E0.08295
G1 X120.828 Y104.950 E0.01172
G1 X120.828 Y123.578 E0.66362
G1 X120.300 Y123.578 E0.01883
G1 X120.300 Y104.950 E0.66362
G1 X119.771 Y104.950 E0.01883
G1 X119.771 Y123.578 E0.66362
G1 X119.242 Y123.578 E0.01883
G1 X119.242 Y104.950 E0.66362
G1 X118.829 Y104.950 E0.01475
G1 X118.829 Y102.621 E0.08295
G1 X118.714 Y102.621 E0.00408
G1 X118.714 Y125.907 E0.82952
G1 X118.185 Y125.907 E0.01883
G1 X118.185 Y102.621 E0.82952
G1 X117.657 Y102.621 E0.01883
G1 X117.657 Y125.907 E0.82952
G1 X117.128 Y125.907 E0.01883
G1 X117.128 Y102.621 E0.82952
G1 X116.600 Y102.621 E0.01883
G1 X116.600 Y125.907 E0.82952
G1 X116.071 Y125.907 E0.01883
G1 X116.071 Y102.621 E0.82952
G1 X115.543 Y102.621 E0.01883
G1 X115.543 Y125.907 E0.82952
G1 X115.014 Y125.907 E0.01883
G1 X115.014 Y102.621 E0.82952
G1 X114.486 Y102.621 E0.01883
G1 X114.486 Y125.907 E0.82952
G1 X113.957 Y125.907 E0.01883
G1 X113.957 Y102.621 E0.82952
G1 X113.429 Y102.621 E0.01883
G1 X113.429 Y125.907 E0.82952
G1 X112.900 Y125.907 E0.01883
G1 X112.900 Y102.621 E0.82952
G1 X112.371 Y102.621 E0.01883
G1 X112.371 Y125.907 E0.82952
G1 X111.843 Y125.907 E0.01883
G1 X111.843 Y102.621 E0.82952
G1 X111.314 Y102.621 E0.01883
G1 X111.314 Y125.907 E0.82952
G1 X110.786 Y125.907 E0.01883
G1 X110.786 Y102.621 E0.82952
