; generated by PrusaSlicer 2.3.1+linux-x64 on 2021-06-13 at 07:03:40 UTC

; 

; external perimeters extrusion width = 0.45mm
; perimeters extrusion width = 0.45mm
; infill extrusion width = 0.45mm
; solid infill extrusion width = 0.45mm
; top infill extrusion width = 0.40mm
; support material extrusion width = 0.35mm
; first layer extrusion width = 0.42mm

M73 P0 R83
M73 Q0 S84
M201 X1000 Y1000 Z200 E5000 ; sets maximum accelerations, mm/sec^2
M203 X200 Y200 Z12 E120 ; sets maximum feedrates, mm/sec
M204 P1250 R1250 T1250 ; sets acceleration (P, T) and retract acceleration (R), mm/sec^2
M205 X8.00 Y8.00 Z0.40 E4.50 ; sets the jerk limits, mm/sec
M205 S0 T0 ; sets the minimum extruding and travel feed rate, mm/sec
M107
;TYPE:Custom
M862.3 P "MK3S" ; printer model check
M862.1 P0.4 ; nozzle diameter check
M115 U3.9.3 ; tell printer latest fw version
G90 ; use absolute coordinates
M83 ; extruder relative mode
M104 S205 ; set extruder temp
M140 S70 ; set bed temp
M190 S70 ; wait for bed temp
M109 S205 ; wait for extruder temp
G28 W ; home all without mesh bed level
G80 ; mesh bed leveling
G1 Y-3.0 F1000.0 ; go outside print area
G92 E0.0
G1 X60.0 E9.0 F1000.0 ; intro line
G1 X100.0 E12.5 F1000.0 ; intro line
G92 E0.0
M221 S95

; Don't change E values below. Excessive value can damage the printer.
M907 E430 ; set extruder motor current
G21 ; set units to millimeters
G90 ; use absolute coordinates
M83 ; use relative distances for extrusion
M900 K0.05 ; Filament gcode LA 1.5
M900 K30 ; Filament gcode LA 1.0
;LAYER_CHANGE
;Z:0.2
;HEIGHT:0.2
;BEFORE_LAYER_CHANGE
G92 E0.0
;0.2


G1 E-0.80000 F2100.000
G1 Z0.400 F10800.000
;AFTER_LAYER_CHANGE
;0.2
G1 X97.343 Y81.835
G1 Z0.200
G1 E0.80000 F2100.000
M204 S1000
;TYPE:Skirt
;WIDTH:0.42
G1 F1200.000
G1 X99.527 Y79.650 E0.09685
G1 X101.127 Y78.759 E0.05743
G1 X102.467 Y78.494 E0.04281
G1 X112.334 Y78.494 E0.30938
G1 X113.483 Y77.368 E0.05044
G1 X114.624 Y76.707 E0.04136
G1 X114.996 Y76.582 E0.01229
G1 X115.388 Y76.406 E0.01349
G1 X116.432 Y76.178 E0.03349
G1 X117.622 Y76.167 E0.03732
G1 X117.622 Y55.498 E0.64806
G1 X117.939 Y54.183 E0.04239
G1 X118.312 Y53.395 E0.02735
G1 X119.368 Y52.185 E0.05034
G1 X120.616 Y51.420 E0.04590
G1 X122.070 Y51.051 E0.04704
G1 X134.122 Y51.064 E0.37788
G1 X134.961 Y51.057 E0.02629
G1 X135.647 Y50.940 E0.02183
G1 X136.673 Y50.947 E0.03217
G1 X137.941 Y51.277 E0.04109
G1 X139.067 Y51.954 E0.04117
G1 X140.620 Y53.537 E0.06955
G1 X140.967 Y54.105 E0.02087
G1 X141.538 Y54.454 E0.02098
G1 X143.151 Y56.042 E0.07097
G1 X143.933 Y57.497 E0.05179
G1 X144.132 Y58.525 E0.03282
G1 X144.135 Y59.388 E0.02707
G1 X144.016 Y60.126 E0.02345
G1 X144.136 Y60.768 E0.02047
G1 X144.130 Y61.741 E0.03052
G1 X144.017 Y62.389 E0.02061
G1 X144.021 Y70.606 E0.25766
G1 X143.761 Y71.853 E0.03993
G1 X143.143 Y73.049 E0.04220
G1 X142.206 Y74.047 E0.04292
G1 X141.197 Y74.651 E0.03688
G1 X140.673 Y75.567 E0.03309
G1 X139.700 Y76.510 E0.04249
G1 X138.903 Y77.002 E0.02937
G1 X138.762 Y77.297 E0.01026
G1 X137.952 Y78.364 E0.04201
G1 X137.576 Y78.660 E0.01500
G1 X138.706 Y79.775 E0.04980
G1 X141.438 Y82.663 E0.12463
G1 X141.866 Y83.528 E0.03027
G1 X142.126 Y84.459 E0.03030
G1 X142.183 Y85.758 E0.04078
G1 X142.306 Y86.351 E0.01897
G1 X142.306 Y87.273 E0.02892
G1 X142.188 Y87.997 E0.02301
G1 X142.180 Y97.852 E0.30898
G1 X142.193 Y98.079 E0.00713
G1 X142.082 Y100.268 E0.06873
G1 X141.882 Y100.871 E0.01993
G1 X141.690 Y101.252 E0.01338
G1 X141.579 Y101.528 E0.00932
G1 X140.893 Y102.665 E0.04163
G1 X139.115 Y104.451 E0.07904
G1 X138.775 Y104.701 E0.01323
G1 X138.570 Y104.996 E0.01127
G1 X137.527 Y106.035 E0.04614
G1 X138.314 Y106.850 E0.03554
G1 X139.252 Y108.776 E0.06716
G1 X139.363 Y109.661 E0.02798
G1 X139.363 Y111.917 E0.07074
G1 X139.479 Y112.487 E0.01822
G1 X139.473 Y113.459 E0.03047
G1 X139.360 Y114.108 E0.02067
G1 X139.353 Y119.440 E0.16718
G1 X139.716 Y119.665 E0.01338
G1 X140.790 Y120.709 E0.04696
G1 X141.711 Y122.542 E0.06432
G1 X141.806 Y123.284 E0.02346
G1 X141.806 Y124.102 E0.02563
G1 X141.687 Y124.838 E0.02338
G1 X141.806 Y125.464 E0.01998
G1 X141.806 Y126.388 E0.02896
G1 X141.687 Y127.119 E0.02322
G1 X141.689 Y128.706 E0.04978
G1 X141.806 Y129.275 E0.01819
G1 X141.806 Y130.196 E0.02890
G1 X141.689 Y130.918 E0.02292
G1 X141.690 Y131.522 E0.01893
G1 X143.122 Y132.949 E0.06339
G1 X143.850 Y134.209 E0.04564
G1 X144.135 Y135.482 E0.04090
G1 X144.132 Y136.376 E0.02805
G1 X143.988 Y137.215 E0.02669
G1 X145.902 Y137.233 E0.06003
G1 X147.184 Y137.563 E0.04149
G1 X148.572 Y138.402 E0.05086
G1 X150.466 Y140.436 E0.08715
G1 X150.916 Y141.410 E0.03363
G1 X151.121 Y142.478 E0.03410
G1 X151.116 Y143.386 E0.02847
G1 X151.000 Y144.043 E0.02094
G1 X150.994 Y144.877 E0.02612
G1 X151.005 Y148.694 E0.11969
G1 X151.121 Y149.254 E0.01795
G1 X151.121 Y150.176 E0.02891
G1 X151.001 Y150.911 E0.02334
G1 X150.964 Y152.101 E0.03733
G1 X150.635 Y153.250 E0.03747
G1 X149.662 Y154.833 E0.05825
G1 X148.800 Y155.671 E0.03772
G1 X147.723 Y156.289 E0.03893
G1 X146.364 Y156.620 E0.04384
G1 X143.186 Y156.620 E0.09965
G1 X143.017 Y156.933 E0.01114
G1 X142.135 Y157.884 E0.04067
G1 X141.027 Y158.569 E0.04086
G1 X139.863 Y158.907 E0.03800
G1 X131.032 Y158.945 E0.27691
G1 X130.382 Y159.059 E0.02066
G1 X129.469 Y159.064 E0.02864
G1 X128.396 Y158.854 E0.03429
G1 X127.425 Y158.404 E0.03355
G1 X125.840 Y156.962 E0.06720
G1 X125.078 Y155.793 E0.04373
G1 X124.681 Y154.552 E0.04086
G1 X124.607 Y152.520 E0.06375
G1 X124.620 Y152.326 E0.00609
G1 X124.610 Y144.118 E0.25737
G1 X124.137 Y143.819 E0.01753
G1 X123.030 Y142.672 E0.04998
G1 X122.557 Y141.868 E0.02925
G1 X122.259 Y141.007 E0.02857
G1 X122.166 Y139.510 E0.04705
G1 X122.282 Y138.778 E0.02324
G1 X122.280 Y132.057 E0.21071
G1 X120.975 Y130.716 E0.05867
G1 X120.410 Y129.778 E0.03433
G1 X120.053 Y128.747 E0.03420
G1 X119.949 Y126.561 E0.06863
G1 X119.963 Y126.343 E0.00683
G1 X119.953 Y120.565 E0.18119
G1 X118.501 Y119.128 E0.06403
G1 X117.951 Y118.278 E0.03176
G1 X117.597 Y117.273 E0.03341
G1 X117.508 Y115.840 E0.04503
G1 X117.625 Y115.079 E0.02413
G1 X117.623 Y109.117 E0.18693
G1 X116.675 Y108.171 E0.04198
G1 X116.276 Y108.126 E0.01259
G1 X114.613 Y107.486 E0.05587
G1 X113.920 Y106.947 E0.02753
G1 X112.865 Y105.892 E0.04678
G1 X110.095 Y105.892 E0.08684
G1 X109.210 Y105.781 E0.02797
G1 X107.293 Y104.850 E0.06683
G1 X105.967 Y103.564 E0.05792
G1 X103.111 Y103.564 E0.08955
G1 X101.354 Y103.109 E0.05692
G1 X100.201 Y102.370 E0.04294
G1 X97.071 Y99.240 E0.13879
G1 X96.374 Y98.073 E0.04262
G1 X96.050 Y96.708 E0.04399
G1 X96.055 Y95.782 E0.02902
G1 X96.168 Y95.135 E0.02060
G1 X96.165 Y85.112 E0.31426
G1 X96.270 Y84.542 E0.01819
G1 X96.296 Y84.172 E0.01160
G1 X96.419 Y83.574 E0.01916
G1 X97.315 Y81.888 E0.05987
G1 X97.630 Y82.081 F10800.000
G1 F1200.000
G1 X99.775 Y79.936 E0.09513
G1 X101.283 Y79.104 E0.05401
G1 X102.484 Y78.871 E0.03837
G1 X112.488 Y78.871 E0.31366
G1 X113.729 Y77.654 E0.05450
G1 X114.794 Y77.044 E0.03847
G1 X115.134 Y76.933 E0.01120
G1 X115.490 Y76.770 E0.01229
G1 X116.493 Y76.551 E0.03219
G1 X117.999 Y76.542 E0.04724
G1 X117.999 Y55.521 E0.65911
G1 X118.301 Y54.293 E0.03964
G1 X118.641 Y53.581 E0.02475
G1 X119.592 Y52.490 E0.04535
G1 X120.739 Y51.778 E0.04235
G1 X122.094 Y51.428 E0.04389
G1 X134.123 Y51.441 E0.37717
G1 X134.995 Y51.434 E0.02734
G1 X135.662 Y51.317 E0.02121
G1 X136.646 Y51.324 E0.03087
G1 X137.817 Y51.634 E0.03800
G1 X138.850 Y52.263 E0.03789
G1 X140.334 Y53.784 E0.06664
G1 X140.692 Y54.380 E0.02180
G1 X141.289 Y54.739 E0.02187
G1 X142.865 Y56.290 E0.06933
G1 X143.586 Y57.648 E0.04819
G1 X143.755 Y58.543 E0.02855
G1 X143.758 Y59.373 E0.02604
G1 X143.641 Y60.078 E0.02241
G1 X143.642 Y60.234 E0.00488
G1 X143.759 Y60.788 E0.01776
G1 X143.754 Y61.723 E0.02930
G1 X143.640 Y62.355 E0.02014
G1 X143.644 Y70.587 E0.25810
G1 X143.397 Y71.750 E0.03729
G1 X142.850 Y72.810 E0.03740
G1 X141.950 Y73.769 E0.04124
G1 X140.918 Y74.378 E0.03758
G1 X140.391 Y75.316 E0.03374
G1 X139.453 Y76.225 E0.04093
G1 X138.776 Y76.637 E0.02485
G1 X138.625 Y76.699 E0.00514
G1 X138.448 Y77.087 E0.01336
G1 X137.669 Y78.113 E0.04039
G1 X136.994 Y78.616 E0.02639
G1 X138.435 Y80.038 E0.06347
G1 X141.113 Y82.857 E0.12193
G1 X141.507 Y83.648 E0.02770
G1 X141.757 Y84.539 E0.02902
G1 X141.808 Y85.806 E0.03976
G1 X141.929 Y86.371 E0.01813
G1 X141.929 Y87.257 E0.02777
G1 X141.811 Y87.966 E0.02253
G1 X141.803 Y97.865 E0.31037
G1 X141.816 Y98.072 E0.00653
G1 X141.716 Y100.174 E0.06597
G1 X141.529 Y100.739 E0.01865
G1 X141.347 Y101.096 E0.01256
G1 X141.235 Y101.373 E0.00938
G1 X140.583 Y102.450 E0.03947
G1 X138.859 Y104.173 E0.07644
G1 X138.499 Y104.435 E0.01394
G1 X138.290 Y104.742 E0.01167
G1 X136.994 Y106.033 E0.05736
G1 X137.990 Y107.045 E0.04452
G1 X138.882 Y108.855 E0.06327
G1 X138.986 Y109.673 E0.02586
G1 X138.986 Y111.957 E0.07162
G1 X139.102 Y112.506 E0.01757
G1 X139.096 Y113.440 E0.02929
G1 X138.983 Y114.074 E0.02020
G1 X138.976 Y119.655 E0.17498
G1 X139.469 Y119.952 E0.01806
G1 X140.504 Y120.958 E0.04525
G1 X141.341 Y122.623 E0.05843
G1 X141.429 Y123.297 E0.02131
G1 X141.429 Y124.086 E0.02475
G1 X141.313 Y124.790 E0.02236
G1 X141.313 Y124.943 E0.00481
G1 X141.429 Y125.486 E0.01740
G1 X141.429 Y126.372 E0.02777
G1 X141.309 Y127.087 E0.02275
G1 X141.312 Y128.747 E0.05205
G1 X141.429 Y129.295 E0.01757
G1 X141.429 Y130.181 E0.02776
G1 X141.312 Y130.887 E0.02244
G1 X141.313 Y131.678 E0.02482
G1 X142.838 Y133.198 E0.06748
G1 X143.509 Y134.371 E0.04237
G1 X143.758 Y135.501 E0.03629
G1 X143.755 Y136.358 E0.02689
G1 X143.641 Y137.004 E0.02055
G1 X143.642 Y137.175 E0.00537
G1 X143.738 Y137.590 E0.01336
G1 X145.875 Y137.610 E0.06701
G1 X147.061 Y137.920 E0.03842
G1 X148.353 Y138.709 E0.04748
G1 X150.168 Y140.669 E0.08375
G1 X150.562 Y141.544 E0.03009
G1 X150.744 Y142.494 E0.03033
G1 X150.739 Y143.367 E0.02738
G1 X150.624 Y144.008 E0.02042
G1 X150.617 Y144.876 E0.02721
G1 X150.628 Y148.735 E0.12100
G1 X150.744 Y149.275 E0.01732
G1 X150.744 Y150.160 E0.02776
G1 X150.624 Y150.875 E0.02272
G1 X150.595 Y152.023 E0.03600
G1 X150.300 Y153.077 E0.03431
G1 X149.381 Y154.580 E0.05525
G1 X148.591 Y155.356 E0.03473
G1 X147.558 Y155.948 E0.03731
G1 X146.342 Y156.243 E0.03925
G1 X142.950 Y156.243 E0.10634
G1 X142.720 Y156.699 E0.01602
G1 X141.914 Y157.577 E0.03735
G1 X140.851 Y158.234 E0.03919
G1 X139.786 Y158.537 E0.03474
G1 X130.997 Y158.568 E0.27556
G1 X130.364 Y158.682 E0.02017
G1 X129.485 Y158.687 E0.02754
G1 X128.533 Y158.502 E0.03041
G1 X127.610 Y158.074 E0.03191
G1 X126.113 Y156.701 E0.06371
G1 X125.409 Y155.611 E0.04068
G1 X125.048 Y154.464 E0.03769
G1 X124.984 Y152.519 E0.06104
G1 X124.997 Y152.340 E0.00560
G1 X124.987 Y143.906 E0.26447
G1 X124.390 Y143.539 E0.02196
G1 X123.342 Y142.460 E0.04715
G1 X122.907 Y141.727 E0.02675
G1 X122.624 Y140.909 E0.02712
G1 X122.543 Y139.510 E0.04395
G1 X122.659 Y138.809 E0.02227
G1 X122.657 Y131.903 E0.21653
G1 X121.286 Y130.501 E0.06148
G1 X120.760 Y129.635 E0.03177
G1 X120.419 Y128.650 E0.03269
G1 X120.326 Y126.556 E0.06572
G1 X120.340 Y126.357 E0.00626
G1 X120.330 Y120.406 E0.18658
G1 X118.805 Y118.905 E0.06710
G1 X118.298 Y118.129 E0.02907
G1 X117.972 Y117.222 E0.03020
G1 X117.885 Y115.838 E0.04350
G1 X118.002 Y115.110 E0.02312
G1 X118.000 Y108.961 E0.19279
G1 X116.844 Y107.807 E0.05119
G1 X116.385 Y107.763 E0.01448
G1 X114.822 Y107.170 E0.05242
G1 X114.178 Y106.672 E0.02551
G1 X113.021 Y105.515 E0.05129
G1 X110.107 Y105.515 E0.09136
G1 X109.290 Y105.411 E0.02585
G1 X107.487 Y104.525 E0.06297
G1 X106.122 Y103.187 E0.05995
G1 X103.135 Y103.187 E0.09366
G1 X101.531 Y102.774 E0.05193
G1 X100.453 Y102.088 E0.04006
G1 X97.355 Y98.990 E0.13738
G1 X96.713 Y97.906 E0.03949
G1 X96.427 Y96.688 E0.03924
G1 X96.432 Y95.801 E0.02780
G1 X96.545 Y95.169 E0.02013
G1 X96.542 Y85.130 E0.31476
G1 X96.645 Y84.589 E0.01726
G1 X96.668 Y84.235 E0.01112
G1 X96.783 Y83.676 E0.01790
G1 X97.601 Y82.134 E0.05473
G1 X97.916 Y82.328 F10800.000
G1 F1200.000
G1 X100.022 Y80.222 E0.09338
G1 X101.437 Y79.449 E0.05055
G1 X102.502 Y79.248 E0.03397
G1 X112.642 Y79.248 E0.31795
G1 X113.976 Y77.940 E0.05856
G1 X114.929 Y77.397 E0.03440
G1 X115.275 Y77.284 E0.01140
G1 X115.592 Y77.133 E0.01102
G1 X116.553 Y76.924 E0.03084
G1 X118.376 Y76.919 E0.05716
G1 X118.376 Y55.544 E0.67019
G1 X118.661 Y54.404 E0.03685
G1 X118.969 Y53.769 E0.02213
G1 X119.855 Y52.761 E0.04207
G1 X120.911 Y52.114 E0.03883
G1 X122.117 Y51.805 E0.03904
G1 X134.125 Y51.818 E0.37648
G1 X135.031 Y51.811 E0.02842
G1 X135.677 Y51.694 E0.02058
G1 X136.620 Y51.701 E0.02957
G1 X137.646 Y51.971 E0.03328
G1 X138.597 Y52.544 E0.03479
G1 X140.048 Y54.030 E0.06513
G1 X140.416 Y54.656 E0.02276
G1 X141.042 Y55.025 E0.02278
G1 X142.579 Y56.538 E0.06764
G1 X143.239 Y57.796 E0.04454
G1 X143.378 Y58.560 E0.02434
G1 X143.381 Y59.358 E0.02502
G1 X143.264 Y60.047 E0.02191
G1 X143.265 Y60.276 E0.00720
G1 X143.382 Y60.808 E0.01706
G1 X143.377 Y61.703 E0.02808
G1 X143.263 Y62.320 E0.01966
G1 X143.266 Y70.566 E0.25855
G1 X143.034 Y71.646 E0.03463
G1 X142.557 Y72.571 E0.03263
G1 X141.695 Y73.490 E0.03953
G1 X140.638 Y74.104 E0.03831
G1 X140.107 Y75.065 E0.03442
G1 X139.207 Y75.938 E0.03934
G1 X138.599 Y76.303 E0.02222
G1 X138.343 Y76.401 E0.00861
G1 X138.134 Y76.878 E0.01633
G1 X137.386 Y77.862 E0.03874
G1 X136.414 Y78.566 E0.03764
G1 X138.051 Y80.206 E0.07265
G1 X138.174 Y80.310 E0.00504
G1 X140.788 Y83.051 E0.11875
G1 X141.162 Y83.799 E0.02623
G1 X141.387 Y84.617 E0.02661
G1 X141.432 Y85.855 E0.03882
G1 X141.552 Y86.393 E0.01729
G1 X141.552 Y87.241 E0.02659
G1 X141.434 Y87.933 E0.02203
G1 X141.425 Y97.879 E0.31183
G1 X141.439 Y98.067 E0.00593
G1 X141.350 Y100.081 E0.06318
G1 X141.176 Y100.606 E0.01734
G1 X141.003 Y100.940 E0.01180
G1 X140.903 Y101.194 E0.00854
G1 X140.300 Y102.200 E0.03679
G1 X138.604 Y103.895 E0.07520
G1 X138.223 Y104.169 E0.01470
G1 X138.010 Y104.489 E0.01207
G1 X136.459 Y106.034 E0.06862
G1 X137.667 Y107.242 E0.05356
G1 X138.512 Y108.935 E0.05935
G1 X138.609 Y109.686 E0.02372
G1 X138.609 Y111.999 E0.07254
G1 X138.725 Y112.525 E0.01689
G1 X138.719 Y113.421 E0.02808
G1 X138.606 Y114.039 E0.01971
G1 X138.598 Y119.872 E0.18289
G1 X139.224 Y120.239 E0.02273
G1 X140.219 Y121.206 E0.04352
G1 X140.972 Y122.704 E0.05257
G1 X141.052 Y123.310 E0.01915
G1 X141.052 Y124.070 E0.02384
G1 X140.936 Y124.758 E0.02189
G1 X140.936 Y124.986 E0.00714
G1 X141.052 Y125.507 E0.01675
G1 X141.052 Y126.355 E0.02659
G1 X140.932 Y127.055 E0.02226
G1 X140.935 Y128.790 E0.05439
G1 X141.052 Y129.317 E0.01692
G1 X141.052 Y130.164 E0.02658
G1 X140.935 Y130.855 E0.02196
G1 X140.936 Y131.877 E0.03206
G1 X141.095 Y131.994 E0.00617
G1 X142.553 Y133.446 E0.06452
G1 X143.166 Y134.531 E0.03907
G1 X143.381 Y135.520 E0.03173
G1 X143.378 Y136.340 E0.02572
G1 X143.264 Y136.970 E0.02008
G1 X143.265 Y137.219 E0.00780
G1 X143.377 Y137.702 E0.01555
G1 X143.390 Y137.964 E0.00822
G1 X145.849 Y137.986 E0.07711
G1 X146.890 Y138.257 E0.03372
G1 X148.095 Y138.985 E0.04415
G1 X149.870 Y140.901 E0.08188
G1 X150.208 Y141.674 E0.02647
G1 X150.367 Y142.510 E0.02666
G1 X150.362 Y143.348 E0.02627
G1 X150.247 Y143.971 E0.01989
G1 X150.240 Y144.875 E0.02832
G1 X150.251 Y148.777 E0.12237
G1 X150.366 Y149.296 E0.01666
G1 X150.366 Y150.144 E0.02658
G1 X150.248 Y150.839 E0.02212
G1 X150.225 Y151.947 E0.03473
G1 X149.963 Y152.904 E0.03111
G1 X149.099 Y154.330 E0.05227
G1 X148.381 Y155.042 E0.03169
G1 X147.394 Y155.607 E0.03568
G1 X146.320 Y155.866 E0.03465
G1 X142.711 Y155.866 E0.11315
G1 X142.421 Y156.468 E0.02095
M73 Q0 S83
G1 X141.693 Y157.270 E0.03397
G1 X140.676 Y157.899 E0.03749
G1 X139.710 Y158.167 E0.03144
G1 X130.962 Y158.191 E0.27429
G1 X130.344 Y158.305 E0.01968
G1 X129.503 Y158.310 E0.02640
G1 X128.630 Y158.137 E0.02789
G1 X127.797 Y157.746 E0.02884
G1 X126.387 Y156.441 E0.06024
G1 X125.741 Y155.430 E0.03762
G1 X125.416 Y154.378 E0.03452
G1 X125.361 Y152.519 E0.05833
G1 X125.374 Y152.356 E0.00512
G1 X125.363 Y143.691 E0.27167
G1 X124.642 Y143.257 E0.02640
G1 X123.654 Y142.247 E0.04432
G1 X123.256 Y141.585 E0.02420
G1 X122.990 Y140.811 E0.02565
G1 X122.921 Y139.512 E0.04080
G1 X123.036 Y138.842 E0.02132
G1 X123.034 Y131.748 E0.22241
G1 X121.597 Y130.287 E0.06427
