; generated by PrusaSlicer 2.3.1+linux-x64 on 2021-06-17 at 05:00:52 UTC

; 

; external perimeters extrusion width = 0.45mm
; perimeters extrusion width = 0.45mm
; infill extrusion width = 0.45mm
; solid infill extrusion width = 0.45mm
; top infill extrusion width = 0.40mm
; support material extrusion width = 0.35mm
; first layer extrusion width = 0.42mm

M73 P0 R79
M73 Q0 S79
M201 X1000 Y1000 Z200 E5000 ; sets maximum accelerations, mm/sec^2
M203 X200 Y200 Z12 E120 ; sets maximum feedrates, mm/sec
M204 P1250 R1250 T1250 ; sets acceleration (P, T) and retract acceleration (R), mm/sec^2
M205 X8.00 Y8.00 Z0.40 E4.50 ; sets the jerk limits, mm/sec
M205 S0 T0 ; sets the minimum extruding and travel feed rate, mm/sec
M107
;TYPE:Custom
M862.3 P "MK3S" ; printer model check
M862.1 P0.4 ; nozzle diameter check
M115 U3.9.3 ; tell printer latest fw version
G90 ; use absolute coordinates
M83 ; extruder relative mode
M104 S205 ; set extruder temp
M140 S70 ; set bed temp
M190 S70 ; wait for bed temp
M109 S205 ; wait for extruder temp
G28 W ; home all without mesh bed level
G80 ; mesh bed leveling
G1 Y-3.0 F1000.0 ; go outside print area
G92 E0.0
G1 X60.0 E9.0 F1000.0 ; intro line
G1 X100.0 E12.5 F1000.0 ; intro line
G92 E0.0
M221 S95

; Don't change E values below. Excessive value can damage the printer.
M907 E430 ; set extruder motor current
G21 ; set units to millimeters
G90 ; use absolute coordinates
M83 ; use relative distances for extrusion
M900 K0.05 ; Filament gcode LA 1.5
M900 K30 ; Filament gcode LA 1.0
;LAYER_CHANGE
;Z:0.2
;HEIGHT:0.2
;BEFORE_LAYER_CHANGE
G92 E0.0
;0.2


G1 E-0.80000 F2100.000
G1 Z0.400 F10800.000
;AFTER_LAYER_CHANGE
;0.2
G1 X88.125 Y88.125
G1 Z0.200
G1 E0.80000 F2100.000
M204 S1000
;TYPE:Skirt
;WIDTH:0.42
G1 F1200.000
G1 X89.518 Y86.732 E0.06176
G1 X90.897 Y85.907 E0.05039
G1 X92.436 Y85.553 E0.04951
G1 X103.771 Y85.553 E0.35539
G1 X103.798 Y83.413 E0.06712
G1 X104.136 Y82.194 E0.03967
G1 X104.372 Y81.753 E0.01569
G1 X104.469 Y81.509 E0.00823
G1 X104.819 Y80.899 E0.02205
G1 X107.035 Y78.582 E0.10053
G1 X107.199 Y78.452 E0.00654
G1 X107.311 Y78.308 E0.00573
G1 X111.827 Y73.822 E0.19957
G1 X113.568 Y72.928 E0.06136
G1 X114.633 Y72.753 E0.03384
G1 X132.492 Y72.763 E0.55995
G1 X133.713 Y73.073 E0.03949
G1 X134.791 Y73.708 E0.03924
G1 X135.581 Y74.475 E0.03452
G1 X136.067 Y75.163 E0.02641
G1 X137.502 Y73.768 E0.06275
G1 X138.641 Y73.119 E0.04110
G1 X139.908 Y72.783 E0.04111
G1 X158.523 Y72.825 E0.58364
G1 X159.413 Y73.121 E0.02941
G1 X160.498 Y73.783 E0.03985
G1 X161.186 Y74.480 E0.03070
G1 X161.562 Y75.014 E0.02049
G1 X162.154 Y75.603 E0.02618
G1 X162.329 Y75.825 E0.00886
G1 X162.600 Y76.089 E0.01186
G1 X162.803 Y76.377 E0.01106
G1 X163.182 Y76.632 E0.01432
G1 X164.890 Y78.340 E0.07575
G1 X165.075 Y78.604 E0.01010
G1 X165.339 Y78.788 E0.01010
G1 X167.185 Y80.634 E0.08184
G1 X168.054 Y82.058 E0.05232
G1 X168.406 Y83.536 E0.04764
G1 X168.383 Y100.894 E0.54423
G1 X168.018 Y102.245 E0.04388
G1 X167.768 Y102.708 E0.01650
G1 X167.607 Y103.075 E0.01257
G1 X167.161 Y103.758 E0.02558
G1 X165.942 Y104.997 E0.05450
G1 X167.354 Y106.443 E0.06337
G1 X168.012 Y107.564 E0.04075
G1 X168.367 Y108.832 E0.04130
G1 X168.350 Y126.731 E0.56121
G1 X167.928 Y128.048 E0.04335
G1 X167.763 Y128.318 E0.00992
G1 X167.592 Y128.702 E0.01318
G1 X167.023 Y129.527 E0.03142
G1 X165.105 Y131.445 E0.08506
G1 X164.968 Y131.553 E0.00547
G1 X164.859 Y131.692 E0.00552
G1 X162.769 Y133.782 E0.09269
G1 X162.639 Y133.883 E0.00514
G1 X162.539 Y134.012 E0.00514
G1 X160.535 Y136.016 E0.08885
G1 X159.143 Y136.877 E0.05132
G1 X157.638 Y137.247 E0.04858
G1 X139.747 Y137.247 E0.56097
G1 X138.485 Y136.937 E0.04073
G1 X137.424 Y136.327 E0.03840
G1 X136.593 Y135.530 E0.03609
G1 X136.103 Y134.837 E0.02660
G1 X134.668 Y136.232 E0.06275
G1 X133.530 Y136.881 E0.04108
G1 X132.266 Y137.216 E0.04100
G1 X114.263 Y137.247 E0.56447
G1 X113.519 Y137.151 E0.02352
G1 X111.701 Y136.244 E0.06371
G1 X110.988 Y135.524 E0.03176
G1 X110.610 Y134.988 E0.02057
G1 X110.016 Y134.397 E0.02627
G1 X109.841 Y134.175 E0.00886
G1 X109.570 Y133.911 E0.01186
G1 X109.367 Y133.623 E0.01107
G1 X108.988 Y133.368 E0.01432
G1 X107.280 Y131.660 E0.07575
G1 X107.095 Y131.396 E0.01010
G1 X106.831 Y131.212 E0.01010
G1 X105.023 Y129.401 E0.08022
M73 P0 R78
G1 X104.462 Y128.659 E0.02920
G1 X103.774 Y126.578 E0.06870
G1 X103.764 Y124.447 E0.06683
G1 X92.046 Y124.447 E0.36740
G1 X90.740 Y124.148 E0.04199
G1 X89.718 Y123.582 E0.03663
G1 X88.878 Y122.792 E0.03619
G1 X88.432 Y122.179 E0.02375
G1 X87.846 Y121.597 E0.02590
G1 X87.671 Y121.375 E0.00886
G1 X87.400 Y121.111 E0.01186
G1 X87.197 Y120.823 E0.01107
G1 X86.818 Y120.568 E0.01432
G1 X85.110 Y118.860 E0.07575
G1 X84.925 Y118.596 E0.01010
G1 X84.661 Y118.412 E0.01010
G1 X82.825 Y116.576 E0.08141
G1 X81.964 Y115.184 E0.05132
G1 X81.594 Y113.679 E0.04858
G1 X81.594 Y96.561 E0.53671
G1 X81.726 Y95.705 E0.02716
G1 X82.143 Y94.612 E0.03669
G1 X82.251 Y94.443 E0.00629
G1 X82.393 Y94.126 E0.01088
G1 X82.935 Y93.324 E0.03035
G1 X84.891 Y91.358 E0.08696
G1 X85.032 Y91.248 E0.00561
G1 X85.141 Y91.108 E0.00555
G1 X87.231 Y89.018 E0.09269
G1 X87.361 Y88.917 E0.00514
G1 X87.461 Y88.788 E0.00514
G1 X88.082 Y88.167 E0.02753
G1 X88.349 Y88.434 F10800.000
G1 F1200.000
G1 X89.768 Y87.015 E0.06293
G1 X91.012 Y86.268 E0.04549
G1 X92.458 Y85.930 E0.04656
G1 X104.145 Y85.930 E0.36643
G1 X104.168 Y83.488 E0.07658
G1 X104.478 Y82.353 E0.03691
G1 X104.716 Y81.910 E0.01576
G1 X104.805 Y81.681 E0.00771
G1 X105.108 Y81.142 E0.01939
G1 X107.298 Y78.853 E0.09930
G1 X107.469 Y78.720 E0.00680
G1 X107.587 Y78.566 E0.00609
G1 X112.072 Y74.110 E0.19823
G1 X113.659 Y73.295 E0.05593
G1 X114.649 Y73.130 E0.03146
G1 X132.468 Y73.140 E0.55869
G1 X133.591 Y73.431 E0.03640
G1 X134.578 Y74.020 E0.03602
G1 X135.304 Y74.731 E0.03187
G1 X135.672 Y75.257 E0.02013
G1 X136.088 Y75.671 E0.01839
G1 X137.712 Y74.082 E0.07123
G1 X138.764 Y73.476 E0.03807
G1 X139.933 Y73.160 E0.03799
G1 X158.435 Y73.193 E0.58009
G1 X159.237 Y73.455 E0.02647
G1 X160.246 Y74.065 E0.03697
G1 X160.906 Y74.733 E0.02943
G1 X161.272 Y75.257 E0.02004
G1 X161.880 Y75.862 E0.02687
G1 X162.047 Y76.077 E0.00855
G1 X162.323 Y76.345 E0.01206
G1 X162.533 Y76.652 E0.01168
G1 X162.930 Y76.912 E0.01487
G1 X164.611 Y78.593 E0.07453
G1 X164.803 Y78.875 E0.01071
G1 X165.085 Y79.068 E0.01071
G1 X166.902 Y80.885 E0.08057
G1 X167.694 Y82.176 E0.04749
G1 X168.029 Y83.559 E0.04460
G1 X168.006 Y100.868 E0.54271
G1 X167.661 Y102.122 E0.04079
G1 X167.429 Y102.541 E0.01504
G1 X167.281 Y102.885 E0.01171
G1 X166.878 Y103.507 E0.02326
G1 X165.413 Y104.998 E0.06553
G1 X167.042 Y106.655 E0.07288
G1 X167.657 Y107.692 E0.03778
G1 X167.990 Y108.859 E0.03806
G1 X167.982 Y126.646 E0.55769
G1 X167.594 Y127.871 E0.04030
G1 X167.427 Y128.144 E0.01004
G1 X167.270 Y128.505 E0.01234
G1 X166.744 Y129.273 E0.02919
G1 X164.848 Y131.169 E0.08408
G1 X164.699 Y131.284 E0.00590
G1 X164.583 Y131.434 E0.00596
G1 X162.512 Y133.506 E0.09184
G1 X162.370 Y133.614 E0.00558
G1 X162.262 Y133.755 E0.00558
G1 X160.283 Y135.734 E0.08775
G1 X159.022 Y136.518 E0.04656
G1 X157.615 Y136.870 E0.04549
G1 X139.770 Y136.870 E0.55950
G1 X138.603 Y136.578 E0.03771
G1 X137.634 Y136.013 E0.03518
G1 X136.869 Y135.272 E0.03339
G1 X136.499 Y134.743 E0.02027
G1 X136.083 Y134.329 E0.01840
G1 X134.459 Y135.918 E0.07123
G1 X133.407 Y136.524 E0.03806
G1 X132.240 Y136.839 E0.03791
G1 X114.275 Y136.870 E0.56328
G1 X113.599 Y136.782 E0.02137
G1 X111.947 Y135.957 E0.05789
G1 X111.268 Y135.271 E0.03028
G1 X110.901 Y134.744 E0.02012
G1 X110.291 Y134.138 E0.02695
G1 X110.123 Y133.924 E0.00854
G1 X109.848 Y133.655 E0.01206
G1 X109.637 Y133.348 E0.01168
G1 X109.240 Y133.088 E0.01486
G1 X107.560 Y131.407 E0.07453
G1 X107.367 Y131.125 E0.01071
G1 X107.085 Y130.932 E0.01071
G1 X105.313 Y129.161 E0.07855
G1 X104.809 Y128.509 E0.02584
G1 X104.142 Y126.489 E0.06670
G1 X104.142 Y124.070 E0.07586
G1 X92.067 Y124.070 E0.37860
G1 X90.898 Y123.804 E0.03759
G1 X89.959 Y123.291 E0.03355
G1 X89.150 Y122.530 E0.03484
G1 X88.720 Y121.934 E0.02302
G1 X88.120 Y121.338 E0.02650
G1 X87.953 Y121.124 E0.00854
G1 X87.677 Y120.855 E0.01206
G1 X87.466 Y120.548 E0.01168
G1 X87.070 Y120.288 E0.01486
G1 X85.389 Y118.607 E0.07453
G1 X85.197 Y118.325 E0.01071
G1 X84.915 Y118.132 E0.01071
G1 X83.107 Y116.324 E0.08016
G1 X82.323 Y115.063 E0.04656
G1 X81.971 Y113.656 E0.04549
G1 X81.971 Y96.576 E0.53551
M73 Q0 S78
G1 X82.095 Y95.783 E0.02517
G1 X82.471 Y94.799 E0.03302
G1 X82.585 Y94.621 E0.00664
G1 X82.716 Y94.321 E0.01025
G1 X83.215 Y93.577 E0.02810
G1 X85.149 Y91.634 E0.08595
G1 X85.301 Y91.517 E0.00601
G1 X85.417 Y91.366 E0.00598
G1 X87.488 Y89.294 E0.09184
G1 X87.630 Y89.186 E0.00558
G1 X87.738 Y89.045 E0.00558
G1 X88.306 Y88.476 E0.02522
G1 X88.573 Y88.743 F10800.000
G1 F1200.000
G1 X90.018 Y87.298 E0.06406
G1 X91.179 Y86.607 E0.04237
G1 X92.479 Y86.308 E0.04183
G1 X104.520 Y86.308 E0.37753
G1 X104.538 Y83.562 E0.08608
G1 X104.821 Y82.512 E0.03412
G1 X105.060 Y82.066 E0.01585
G1 X105.142 Y81.849 E0.00726
G1 X105.398 Y81.384 E0.01666
G1 X107.559 Y79.125 E0.09800
G1 X107.739 Y78.989 E0.00709
G1 X107.864 Y78.822 E0.00653
G1 X109.915 Y76.772 E0.09092
G1 X110.071 Y76.655 E0.00612
G1 X110.193 Y76.492 E0.00640
G1 X112.316 Y74.399 E0.09346
G1 X113.751 Y73.662 E0.05057
G1 X114.665 Y73.507 E0.02906
G1 X132.442 Y73.517 E0.55741
G1 X133.468 Y73.788 E0.03326
G1 X134.363 Y74.330 E0.03280
G1 X135.026 Y74.986 E0.02924
G1 X135.381 Y75.500 E0.01959
G1 X136.087 Y76.202 E0.03120
G1 X137.922 Y74.396 E0.08073
G1 X138.888 Y73.833 E0.03505
G1 X139.959 Y73.538 E0.03482
G1 X158.348 Y73.561 E0.57657
G1 X159.063 Y73.790 E0.02355
G1 X159.995 Y74.348 E0.03405
G1 X160.626 Y74.986 E0.02814
G1 X160.981 Y75.500 E0.01958
G1 X161.605 Y76.120 E0.02757
G1 X161.764 Y76.327 E0.00822
G1 X162.045 Y76.601 E0.01227
G1 X162.263 Y76.927 E0.01232
G1 X162.678 Y77.194 E0.01546
G1 X164.330 Y78.846 E0.07325
G1 X164.531 Y79.148 E0.01137
G1 X164.833 Y79.349 E0.01137
G1 X166.621 Y81.136 E0.07927
G1 X167.336 Y82.295 E0.04270
G1 X167.652 Y83.581 E0.04152
G1 X167.629 Y100.841 E0.54116
G1 X167.304 Y101.996 E0.03763
G1 X167.090 Y102.374 E0.01363
G1 X166.955 Y102.696 E0.01094
G1 X166.595 Y103.257 E0.02090
G1 X164.883 Y104.999 E0.07657
G1 X166.731 Y106.869 E0.08244
G1 X167.302 Y107.821 E0.03482
G1 X167.613 Y108.886 E0.03478
G1 X167.613 Y126.561 E0.55418
G1 X167.260 Y127.694 E0.03721
G1 X167.090 Y127.971 E0.01019
G1 X166.947 Y128.309 E0.01150
G1 X166.465 Y129.019 E0.02692
G1 X164.592 Y130.892 E0.08305
G1 X164.429 Y131.014 E0.00636
G1 X164.306 Y131.178 E0.00643
G1 X162.256 Y133.228 E0.09092
G1 X162.100 Y133.344 E0.00607
G1 X161.985 Y133.499 E0.00607
G1 X160.032 Y135.453 E0.08662
G1 X158.901 Y136.160 E0.04183
G1 X157.591 Y136.492 E0.04237
G1 X139.794 Y136.492 E0.55800
G1 X138.724 Y136.220 E0.03464
G1 X137.846 Y135.701 E0.03196
G1 X137.146 Y135.016 E0.03070
G1 X136.789 Y134.500 E0.01968
G1 X136.083 Y133.798 E0.03120
G1 X134.248 Y135.604 E0.08073
G1 X133.282 Y136.167 E0.03505
G1 X132.213 Y136.462 E0.03476
G1 X114.287 Y136.493 E0.56207
G1 X113.680 Y136.412 E0.01920
G1 X112.193 Y135.670 E0.05209
G1 X111.548 Y135.018 E0.02878
G1 X111.191 Y134.502 E0.01967
G1 X110.566 Y133.880 E0.02765
G1 X110.406 Y133.673 E0.00821
G1 X110.126 Y133.399 E0.01227
G1 X109.907 Y133.073 E0.01232
G1 X109.492 Y132.806 E0.01546
G1 X107.840 Y131.154 E0.07325
G1 X107.639 Y130.852 E0.01137
G1 X107.337 Y130.651 E0.01137
G1 X105.589 Y128.903 E0.07754
G1 X105.127 Y128.304 E0.02369
G1 X104.519 Y126.459 E0.06092
G1 X104.519 Y123.692 E0.08674
G1 X92.087 Y123.692 E0.38977
G1 X91.055 Y123.461 E0.03317
G1 X90.162 Y122.972 E0.03193
G1 X89.423 Y122.270 E0.03197
G1 X89.009 Y121.689 E0.02235
G1 X88.395 Y121.080 E0.02710
G1 X88.236 Y120.873 E0.00821
G1 X87.955 Y120.599 E0.01227
G1 X87.737 Y120.273 E0.01232
G1 X87.322 Y120.006 E0.01546
G1 X85.670 Y118.354 E0.07325
G1 X85.469 Y118.052 E0.01137
G1 X85.167 Y117.851 E0.01137
G1 X83.388 Y116.073 E0.07888
G1 X82.681 Y114.942 E0.04183
G1 X82.348 Y113.632 E0.04237
G1 X82.348 Y96.591 E0.53429
M73 P1 R78
M73 Q1 S78
G1 X82.464 Y95.862 E0.02317
G1 X82.798 Y94.986 E0.02938
G1 X82.920 Y94.797 E0.00705
G1 X83.040 Y94.514 E0.00963
G1 X83.496 Y93.829 E0.02579
G1 X85.406 Y91.910 E0.08490
G1 X85.570 Y91.787 E0.00645
G1 X85.694 Y91.622 E0.00645
G1 X87.744 Y89.572 E0.09092
G1 X87.900 Y89.456 E0.00607
G1 X88.015 Y89.301 E0.00607
G1 X88.531 Y88.785 E0.02286
G1 X88.797 Y89.052 F10800.000
G1 F1200.000
G1 X90.267 Y87.582 E0.06518
G1 X91.345 Y86.947 E0.03921
G1 X92.500 Y86.685 E0.03714
G1 X104.896 Y86.685 E0.38867
G1 X104.909 Y83.636 E0.09557
G1 X105.179 Y82.632 E0.03261
G1 X105.404 Y82.223 E0.01463
G1 X105.481 Y82.014 E0.00700
G1 X105.689 Y81.625 E0.01383
G1 X107.819 Y79.399 E0.09661
G1 X108.010 Y79.258 E0.00741
G1 X108.142 Y79.078 E0.00702
G1 X110.170 Y77.050 E0.08992
G1 X110.341 Y76.926 E0.00664
G1 X110.470 Y76.748 E0.00687
G1 X112.561 Y74.688 E0.09204
G1 X113.843 Y74.029 E0.04522
G1 X114.681 Y73.885 E0.02665
G1 X132.417 Y73.894 E0.55609
G1 X133.342 Y74.145 E0.03006
G1 X134.146 Y74.639 E0.02958
G1 X134.746 Y75.239 E0.02663
G1 X135.089 Y75.742 E0.01908
G1 X135.730 Y76.379 E0.02833
G1 X136.044 Y76.775 E0.01583
G1 X138.135 Y74.708 E0.09218
G1 X139.015 Y74.189 E0.03206
G1 X139.985 Y73.915 E0.03161
G1 X158.263 Y73.929 E0.57308
G1 X158.891 Y74.126 E0.02064
G1 X159.744 Y74.631 E0.03108
G1 X160.345 Y75.239 E0.02681
G1 X160.689 Y75.742 E0.01911
G1 X161.329 Y76.378 E0.02828
G1 X161.481 Y76.577 E0.00786
G1 X161.766 Y76.855 E0.01248
G1 X161.992 Y77.202 E0.01299
G1 X162.427 Y77.476 E0.01611
G1 X164.049 Y79.098 E0.07190
G1 X164.258 Y79.421 E0.01207
G1 X164.581 Y79.630 E0.01207
G1 X166.339 Y81.388 E0.07794
G1 X166.977 Y82.416 E0.03794
G1 X167.275 Y83.605 E0.03842
G1 X167.252 Y100.814 E0.53958
G1 X166.949 Y101.868 E0.03439
G1 X166.751 Y102.206 E0.01230
G1 X166.627 Y102.508 E0.01022
G1 X166.288 Y103.037 E0.01971
G1 X164.309 Y105.043 E0.08835
G1 X164.579 Y105.228 E0.01028
G1 X166.420 Y107.084 E0.08196
G1 X166.948 Y107.954 E0.03189
G1 X167.236 Y108.915 E0.03145
G1 X167.244 Y126.478 E0.55069
G1 X166.926 Y127.518 E0.03410
G1 X166.753 Y127.801 E0.01040
G1 X166.623 Y128.115 E0.01067
G1 X166.185 Y128.766 E0.02459
G1 X164.336 Y130.614 E0.08197
G1 X164.160 Y130.743 E0.00686
G1 X164.029 Y130.922 E0.00695
G1 X162.001 Y132.950 E0.08992
G1 X161.830 Y133.073 E0.00660
G1 X161.707 Y133.244 E0.00660
G1 X159.780 Y135.171 E0.08545
G1 X158.777 Y135.803 E0.03714
G1 X157.567 Y136.115 E0.03921
G1 X139.819 Y136.115 E0.55647
G1 X138.846 Y135.862 E0.03152
G1 X138.061 Y135.390 E0.02872
G1 X137.425 Y134.761 E0.02804
G1 X137.081 Y134.258 E0.01912
G1 X136.440 Y133.621 E0.02833
G1 X136.127 Y133.225 E0.01583
G1 X134.036 Y135.292 E0.09218
G1 X133.155 Y135.811 E0.03206
G1 X132.186 Y136.085 E0.03157
G1 X114.299 Y136.116 E0.56083
G1 X113.761 Y136.043 E0.01702
G1 X112.440 Y135.383 E0.04632
G1 X111.828 Y134.765 E0.02726
G1 X111.483 Y134.260 E0.01919
G1 X110.841 Y133.622 E0.02835
G1 X110.690 Y133.423 E0.00786
G1 X110.405 Y133.145 E0.01248
G1 X110.178 Y132.798 E0.01299
G1 X109.743 Y132.524 E0.01611
G1 X108.122 Y130.902 E0.07190
G1 X107.912 Y130.579 E0.01207
G1 X107.589 Y130.370 E0.01207
G1 X105.864 Y128.645 E0.07649
G1 X105.446 Y128.100 E0.02154
G1 X104.896 Y126.429 E0.05516
G1 X104.896 Y123.315 E0.09762
G1 X92.108 Y123.315 E0.40096
G1 X91.213 Y123.117 E0.02875
G1 X90.365 Y122.654 E0.03028
G1 X89.698 Y122.011 E0.02905
G1 X89.298 Y121.445 E0.02173
G1 X88.671 Y120.822 E0.02771
G1 X88.519 Y120.623 E0.00786
G1 X88.234 Y120.345 E0.01248
G1 X88.008 Y119.998 E0.01299
G1 X87.573 Y119.724 E0.01611
G1 X85.951 Y118.102 E0.07190
G1 X85.742 Y117.779 E0.01207
G1 X85.419 Y117.570 E0.01207
G1 X83.670 Y115.821 E0.07757
G1 X83.038 Y114.818 E0.03714
G1 X82.726 Y113.608 E0.03921
G1 X82.726 Y96.607 E0.53305
G1 X82.833 Y95.941 E0.02114
G1 X83.126 Y95.174 E0.02576
G1 X83.256 Y94.971 E0.00753
G1 X83.366 Y94.706 E0.00902
G1 X83.777 Y94.082 E0.02342
G1 X85.662 Y92.187 E0.08379
G1 X85.840 Y92.057 E0.00693
G1 X85.971 Y91.878 E0.00696
G1 X87.999 Y89.850 E0.08992
G1 X88.170 Y89.727 E0.00660
G1 X88.293 Y89.556 E0.00660
G1 X88.755 Y89.094 E0.02047
G1 X89.022 Y89.361 F10800.000
