; generated by PrusaSlicer 2.3.1+linux-x64 on 2021-06-14 at 18:01:38 UTC

; 

; external perimeters extrusion width = 0.45mm
; perimeters extrusion width = 0.45mm
; infill extrusion width = 0.45mm
; solid infill extrusion width = 0.45mm
; top infill extrusion width = 0.40mm
; support material extrusion width = 0.35mm
; first layer extrusion width = 0.42mm

M73 P0 R61
M73 Q0 S61
M201 X1000 Y1000 Z200 E5000 ; sets maximum accelerations, mm/sec^2
M203 X200 Y200 Z12 E120 ; sets maximum feedrates, mm/sec
M204 P1250 R1250 T1250 ; sets acceleration (P, T) and retract acceleration (R), mm/sec^2
M205 X8.00 Y8.00 Z0.40 E4.50 ; sets the jerk limits, mm/sec
M205 S0 T0 ; sets the minimum extruding and travel feed rate, mm/sec
M107
;TYPE:Custom
M862.3 P "MK3S" ; printer model check
M862.1 P0.4 ; nozzle diameter check
M115 U3.9.3 ; tell printer latest fw version
G90 ; use absolute coordinates
M83 ; extruder relative mode
M104 S205 ; set extruder temp
M140 S70 ; set bed temp
M190 S70 ; wait for bed temp
M109 S205 ; wait for extruder temp
G28 W ; home all without mesh bed level
G80 ; mesh bed leveling
G1 Y-3.0 F1000.0 ; go outside print area
G92 E0.0
G1 X60.0 E9.0 F1000.0 ; intro line
G1 X100.0 E12.5 F1000.0 ; intro line
G92 E0.0
M221 S95

; Don't change E values below. Excessive value can damage the printer.
M907 E430 ; set extruder motor current
G21 ; set units to millimeters
G90 ; use absolute coordinates
M83 ; use relative distances for extrusion
M900 K0.05 ; Filament gcode LA 1.5
M900 K30 ; Filament gcode LA 1.0
;LAYER_CHANGE
;Z:0.2
;HEIGHT:0.2
;BEFORE_LAYER_CHANGE
G92 E0.0
;0.2


G1 E-0.80000 F2100.000
G1 Z0.400 F10800.000
;AFTER_LAYER_CHANGE
;0.2
G1 X123.891 Y72.166
G1 Z0.200
G1 E0.80000 F2100.000
M204 S1000
;TYPE:Skirt
;WIDTH:0.42
G1 F1200.000
G1 X124.312 Y71.442 E0.02627
G1 X126.461 Y69.293 E0.09529
G1 X126.597 Y69.182 E0.00549
G1 X126.695 Y69.058 E0.00496
G1 X128.752 Y67.002 E0.09120
G1 X128.913 Y66.874 E0.00645
G1 X129.046 Y66.707 E0.00669
G1 X131.632 Y64.263 E0.11156
G1 X132.942 Y63.673 E0.04504
G1 X133.423 Y63.576 E0.01539
G1 X133.771 Y63.547 E0.01094
G1 X134.249 Y63.449 E0.01532
G1 X139.237 Y63.449 E0.15637
G1 X140.507 Y63.758 E0.04100
G1 X141.684 Y64.410 E0.04217
G1 X143.174 Y65.839 E0.06475
G1 X143.680 Y65.999 E0.01665
G1 X144.146 Y66.260 E0.01674
G1 X147.280 Y66.260 E0.09825
G1 X149.259 Y66.852 E0.06477
G1 X150.180 Y67.504 E0.03541
G1 X151.448 Y68.778 E0.05636
G1 X151.872 Y69.390 E0.02331
G1 X152.309 Y69.666 E0.01623
G1 X153.767 Y71.094 E0.06399
G1 X154.488 Y72.277 E0.04343
G1 X154.818 Y73.599 E0.04273
G1 X154.812 Y74.579 E0.03071
G1 X154.699 Y75.227 E0.02064
G1 X154.702 Y78.366 E0.09841
G1 X154.817 Y78.931 E0.01807
G1 X154.814 Y79.892 E0.03014
G1 X154.699 Y80.553 E0.02104
G1 X154.702 Y85.821 E0.16517
G1 X154.375 Y87.240 E0.04566
G1 X153.644 Y88.499 E0.04565
G1 X152.800 Y89.329 E0.03711
G1 X151.948 Y89.810 E0.03067
G1 X151.829 Y90.086 E0.00941
G1 X151.349 Y90.811 E0.02727
G1 X150.597 Y91.577 E0.03366
G1 X149.621 Y92.079 E0.03440
G1 X149.562 Y92.213 E0.00460
G1 X149.039 Y93.032 E0.03045
G1 X148.184 Y93.876 E0.03768
G1 X146.421 Y94.732 E0.06146
G1 X145.383 Y94.934 E0.03315
G1 X145.376 Y97.875 E0.09221
G1 X145.390 Y98.116 E0.00756
G1 X145.238 Y100.441 E0.07305
G1 X144.855 Y101.360 E0.03122
G1 X144.301 Y102.185 E0.03118
G1 X143.326 Y103.158 E0.04319
G1 X143.059 Y103.348 E0.01028
G1 X143.051 Y109.163 E0.18231
G1 X142.893 Y110.063 E0.02865
G1 X142.257 Y111.427 E0.04719
G1 X142.598 Y111.798 E0.01580
G1 X143.191 Y112.848 E0.03781
G1 X143.549 Y114.287 E0.04648
G1 X143.560 Y121.833 E0.23662
G1 X143.303 Y123.110 E0.04082
G1 X143.050 Y123.668 E0.01921
G1 X143.060 Y127.705 E0.12658
G1 X142.639 Y129.288 E0.05138
G1 X142.002 Y130.291 E0.03724
G1 X141.157 Y131.106 E0.03683
G1 X139.640 Y131.863 E0.05313
G1 X139.096 Y132.050 E0.01804
G1 X138.500 Y132.195 E0.01923
G1 X134.322 Y132.232 E0.13102
G1 X133.478 Y132.559 E0.02838
G1 X132.480 Y132.744 E0.03180
G1 X128.017 Y132.744 E0.13994
G1 X127.205 Y133.553 E0.03594
G1 X126.259 Y134.140 E0.03491
G1 X125.911 Y134.789 E0.02309
G1 X125.139 Y135.657 E0.03642
G1 X124.087 Y136.385 E0.04012
G1 X123.797 Y136.505 E0.00982
G1 X123.528 Y137.051 E0.01910
G1 X122.478 Y138.226 E0.04940
G1 X121.465 Y138.836 E0.03706
G1 X120.442 Y139.160 E0.03368
G1 X119.760 Y139.194 E0.02139
G1 X119.754 Y139.563 E0.01158
G1 X119.539 Y140.552 E0.03174
G1 X118.834 Y141.899 E0.04765
G1 X117.866 Y142.881 E0.04325
G1 X116.687 Y143.557 E0.04261
G1 X115.327 Y143.886 E0.04386
G1 X110.013 Y143.883 E0.16663
G1 X109.290 Y144.001 E0.02295
G1 X108.367 Y144.001 E0.02895
G1 X107.741 Y143.881 E0.01998
G1 X107.005 Y144.001 E0.02338
G1 X105.310 Y144.001 E0.05313
G1 X103.876 Y143.616 E0.04655
G1 X102.787 Y142.919 E0.04054
G1 X101.450 Y141.553 E0.05994
G1 X101.039 Y140.880 E0.02473
G1 X100.363 Y140.466 E0.02486
G1 X98.960 Y139.081 E0.06180
G1 X98.386 Y138.218 E0.03252
G1 X97.944 Y136.896 E0.04370
G1 X97.668 Y136.783 E0.00933
G1 X96.817 Y136.178 E0.03276
G1 X93.837 Y133.205 E0.13198
G1 X93.196 Y132.236 E0.03643
G1 X92.804 Y130.985 E0.04110
G1 X92.765 Y129.712 E0.03992
G1 X92.879 Y129.045 E0.02121
G1 X92.876 Y123.589 E0.17108
G1 X93.004 Y122.918 E0.02141
G1 X93.085 Y122.277 E0.02025
G1 X93.370 Y121.440 E0.02775
G1 X94.165 Y120.213 E0.04581
G1 X96.705 Y117.806 E0.10974
G1 X97.771 Y117.272 E0.03737
G1 X98.730 Y117.034 E0.03101
G1 X99.714 Y117.002 E0.03086
G1 X100.965 Y115.772 E0.05502
G1 X102.496 Y114.965 E0.05424
G1 X103.132 Y114.814 E0.02050
G1 X103.467 Y114.784 E0.01054
G1 X104.124 Y114.659 E0.02098
G1 X108.796 Y114.667 E0.14649
G1 X109.866 Y114.861 E0.03410
G1 X111.454 Y115.677 E0.05598
G1 X111.981 Y116.165 E0.02251
G1 X112.505 Y115.846 E0.01924
G1 X112.584 Y115.685 E0.00563
G1 X113.279 Y114.732 E0.03700
G1 X113.709 Y114.346 E0.01810
G1 X114.225 Y113.842 E0.02260
G1 X115.013 Y113.333 E0.02942
G1 X116.431 Y112.875 E0.04673
G1 X116.717 Y112.849 E0.00901
G1 X116.747 Y112.486 E0.01142
G1 X117.023 Y111.635 E0.02804
G1 X117.843 Y110.075 E0.05526
G1 X118.719 Y109.179 E0.03930
G1 X119.627 Y108.603 E0.03370
G1 X119.908 Y108.013 E0.02049
G1 X120.683 Y107.088 E0.03784
G1 X121.322 Y106.639 E0.02449
G1 X121.331 Y102.669 E0.12446
G1 X121.317 Y102.428 E0.00757
G1 X121.471 Y100.097 E0.07328
G1 X121.880 Y99.131 E0.03288
G1 X122.484 Y98.265 E0.03311
G1 X123.476 Y97.413 E0.04100
G1 X123.652 Y97.315 E0.00629
G1 X123.699 Y91.287 E0.18903
G1 X124.025 Y90.184 E0.03606
G1 X124.596 Y89.198 E0.03574
G1 X125.615 Y88.171 E0.04535
G1 X125.975 Y87.957 E0.01314
G1 X125.975 Y86.109 E0.05795
G1 X124.167 Y84.258 E0.08115
G1 X123.564 Y83.233 E0.03728
G1 X123.209 Y82.067 E0.03822
G1 X123.145 Y80.101 E0.06167
G1 X123.159 Y79.892 E0.00658
G1 X123.147 Y74.376 E0.17294
G1 X123.474 Y72.881 E0.04797
G1 X123.860 Y72.217 E0.02409
G1 X124.184 Y72.405 F10800.000
G1 F1200.000
G1 X124.597 Y71.691 E0.02585
G1 X126.720 Y69.567 E0.09416
G1 X126.867 Y69.449 E0.00592
G1 X126.971 Y69.316 E0.00527
G1 X129.010 Y67.277 E0.09043
G1 X129.183 Y67.141 E0.00687
G1 X129.317 Y66.969 E0.00684
G1 X131.817 Y64.593 E0.10816
G1 X133.038 Y64.038 E0.04203
G1 X133.486 Y63.948 E0.01434
G1 X133.823 Y63.922 E0.01061
G1 X134.307 Y63.822 E0.01548
G1 X139.169 Y63.821 E0.15247
M73 P0 R60
G1 X140.393 Y64.118 E0.03947
G1 X141.478 Y64.726 E0.03900
G1 X142.975 Y66.172 E0.06527
G1 X143.547 Y66.353 E0.01878
G1 X144.045 Y66.637 E0.01800
G1 X147.252 Y66.637 E0.10056
G1 X149.067 Y67.178 E0.05936
G1 X149.925 Y67.782 E0.03291
G1 X151.169 Y69.032 E0.05529
G1 X151.606 Y69.669 E0.02422
G1 X152.061 Y69.951 E0.01678
G1 X153.487 Y71.347 E0.06259
G1 X154.130 Y72.397 E0.03861
G1 X154.441 Y73.621 E0.03959
G1 X154.435 Y74.560 E0.02943
G1 X154.322 Y75.193 E0.02018
G1 X154.325 Y78.406 E0.10074
G1 X154.440 Y78.950 E0.01742
G1 X154.436 Y79.874 E0.02897
G1 X154.322 Y80.520 E0.02056
G1 X154.325 Y85.799 E0.16553
G1 X154.014 Y87.126 E0.04274
G1 X153.362 Y88.248 E0.04069
G1 X152.554 Y89.041 E0.03551
G1 X151.650 Y89.545 E0.03246
G1 X151.504 Y89.894 E0.01186
G1 X151.045 Y90.587 E0.02608
G1 X150.351 Y91.289 E0.03095
G1 X149.321 Y91.807 E0.03615
G1 X149.232 Y92.030 E0.00751
G1 X148.758 Y92.779 E0.02780
G1 X147.942 Y93.586 E0.03599
G1 X146.281 Y94.381 E0.05773
G1 X145.006 Y94.620 E0.04066
G1 X144.999 Y97.887 E0.10243
G1 X145.013 Y98.105 E0.00686
G1 X144.877 Y100.327 E0.06977
G1 X144.532 Y101.166 E0.02845
G1 X143.999 Y101.959 E0.02998
G1 X143.073 Y102.878 E0.04089
G1 X142.682 Y103.149 E0.01493
G1 X142.676 Y109.116 E0.18709
G1 X142.540 Y109.927 E0.02578
G1 X141.918 Y111.261 E0.04615
G1 X141.766 Y111.458 E0.00781
G1 X142.281 Y112.005 E0.02354
G1 X142.850 Y113.011 E0.03623
G1 X143.177 Y114.354 E0.04334
G1 X143.183 Y121.814 E0.23391
G1 X142.938 Y123.011 E0.03832
G1 X142.673 Y123.584 E0.01978
G1 X142.683 Y127.681 E0.12846
G1 X142.305 Y129.111 E0.04637
G1 X141.696 Y130.069 E0.03559
G1 X140.918 Y130.813 E0.03377
G1 X139.506 Y131.510 E0.04937
G1 X138.998 Y131.686 E0.01683
G1 X138.432 Y131.823 E0.01826
G1 X134.249 Y131.856 E0.13118
G1 X133.390 Y132.192 E0.02892
G1 X132.462 Y132.367 E0.02959
G1 X127.859 Y132.367 E0.14432
G1 X126.985 Y133.245 E0.03887
G1 X126.174 Y133.755 E0.03004
G1 X125.996 Y133.829 E0.00606
G1 X125.613 Y134.556 E0.02575
G1 X124.873 Y135.389 E0.03495
G1 X123.893 Y136.061 E0.03724
G1 X123.520 Y136.207 E0.01255
G1 X123.227 Y136.823 E0.02138
G1 X122.257 Y137.919 E0.04590
G1 X121.330 Y138.483 E0.03404
G1 X120.353 Y138.793 E0.03211
G1 X119.378 Y138.828 E0.03061
G1 X119.381 Y139.505 E0.02123
G1 X119.176 Y140.447 E0.03020
G1 X118.514 Y141.698 E0.04438
G1 X117.654 Y142.568 E0.03836
G1 X116.570 Y143.198 E0.03932
G1 X115.304 Y143.509 E0.04087
G1 X109.981 Y143.506 E0.16689
G1 X109.274 Y143.624 E0.02247
G1 X108.389 Y143.624 E0.02777
G1 X107.846 Y143.508 E0.01740
G1 X107.692 Y143.507 E0.00481
G1 X106.989 Y143.624 E0.02236
G1 X105.335 Y143.624 E0.05187
G1 X104.053 Y143.282 E0.04157
G1 X103.041 Y142.640 E0.03759
G1 X101.736 Y141.305 E0.05854
G1 X101.314 Y140.605 E0.02562
G1 X100.612 Y140.181 E0.02572
G1 X99.239 Y138.826 E0.06049
G1 X98.735 Y138.074 E0.02839
G1 X98.345 Y136.909 E0.03850
G1 X98.319 Y136.632 E0.00873
G1 X97.864 Y136.460 E0.01524
G1 X97.071 Y135.900 E0.03044
G1 X94.116 Y132.951 E0.13089
G1 X93.548 Y132.097 E0.03216
G1 X93.172 Y130.898 E0.03941
G1 X93.143 Y129.722 E0.03686
G1 X93.256 Y129.079 E0.02049
G1 X93.253 Y123.608 E0.17155
G1 X93.376 Y122.979 E0.02010
G1 X93.457 Y122.344 E0.02005
G1 X93.719 Y121.585 E0.02520
G1 X94.440 Y120.472 E0.04158
G1 X96.944 Y118.100 E0.10815
G1 X97.881 Y117.633 E0.03282
G1 X98.801 Y117.405 E0.02971
G1 X99.874 Y117.375 E0.03365
G1 X101.166 Y116.092 E0.05711
G1 X102.649 Y115.311 E0.05255
G1 X103.202 Y115.185 E0.01776
G1 X103.519 Y115.158 E0.00998
G1 X104.143 Y115.036 E0.01993
G1 X108.748 Y115.041 E0.14441
G1 X109.720 Y115.210 E0.03092
G1 X111.257 Y116.000 E0.05418
G1 X111.929 Y116.638 E0.02906
G1 X112.803 Y116.106 E0.03210
G1 X112.902 Y115.889 E0.00747
G1 X113.572 Y114.971 E0.03564
G1 X113.966 Y114.622 E0.01652
G1 X114.448 Y114.147 E0.02122
G1 X115.153 Y113.684 E0.02645
G1 X116.519 Y113.243 E0.04498
G1 X117.079 Y113.217 E0.01760
G1 X117.114 Y112.577 E0.02012
G1 X117.376 Y111.771 E0.02654
G1 X117.612 Y111.346 E0.01527
G1 X118.134 Y110.317 E0.03616
G1 X118.974 Y109.458 E0.03766
G1 X119.719 Y108.986 E0.02768
G1 X119.900 Y108.912 E0.00612
G1 X120.213 Y108.235 E0.02338
G1 X120.955 Y107.351 E0.03620
G1 X121.699 Y106.838 E0.02831
G1 X121.708 Y102.658 E0.13108
G1 X121.694 Y102.439 E0.00687
G1 X121.831 Y100.214 E0.06990
G1 X122.219 Y99.297 E0.03122
G1 X122.779 Y98.502 E0.03048
G1 X123.698 Y97.719 E0.03786
G1 X124.027 Y97.560 E0.01147
G1 X124.068 Y91.367 E0.19419
G1 X124.363 Y90.353 E0.03310
G1 X124.910 Y89.408 E0.03422
G1 X125.862 Y88.458 E0.04218
G1 X126.352 Y88.180 E0.01768
G1 X126.352 Y85.955 E0.06976
G1 X124.479 Y84.045 E0.08387
G1 X123.918 Y83.099 E0.03451
G1 X123.585 Y82.029 E0.03514
G1 X123.522 Y80.099 E0.06053
G1 X123.536 Y79.905 E0.00610
G1 X123.524 Y74.395 E0.17276
G1 X123.815 Y73.044 E0.04334
G1 X124.154 Y72.457 E0.02126
G1 X124.479 Y72.642 F10800.000
G1 F1200.000
G1 X124.881 Y71.939 E0.02540
G1 X126.979 Y69.842 E0.09300
G1 X127.139 Y69.715 E0.00640
G1 X127.247 Y69.573 E0.00560
G1 X129.268 Y67.552 E0.08961
G1 X129.453 Y67.409 E0.00735
G1 X129.589 Y67.231 E0.00703
G1 X132.004 Y64.922 E0.10474
G1 X133.134 Y64.404 E0.03899
G1 X133.548 Y64.320 E0.01326
G1 X133.875 Y64.296 E0.01026
G1 X134.364 Y64.196 E0.01566
G1 X139.102 Y64.192 E0.14857
G1 X140.278 Y64.478 E0.03793
G1 X141.270 Y65.042 E0.03579
G1 X142.778 Y66.506 E0.06591
G1 X143.378 Y66.691 E0.01969
G1 X143.945 Y67.014 E0.02046
G1 X147.225 Y67.014 E0.10284
G1 X148.876 Y67.504 E0.05398
G1 X149.669 Y68.060 E0.03039
G1 X150.889 Y69.285 E0.05419
G1 X151.340 Y69.949 E0.02517
G1 X151.813 Y70.236 E0.01734
G1 X153.206 Y71.600 E0.06112
G1 X153.792 Y72.568 E0.03550
G1 X154.064 Y73.643 E0.03475
G1 X154.058 Y74.541 E0.02815
G1 X153.945 Y75.159 E0.01971
G1 X153.948 Y78.448 E0.10315
G1 X154.063 Y78.970 E0.01675
G1 X154.059 Y79.855 E0.02776
G1 X153.945 Y80.485 E0.02007
G1 X153.948 Y85.778 E0.16595
G1 X153.673 Y86.963 E0.03814
G1 X153.079 Y87.997 E0.03740
G1 X152.309 Y88.754 E0.03384
G1 X151.349 Y89.279 E0.03430
G1 X151.179 Y89.703 E0.01432
G1 X150.741 Y90.363 E0.02485
G1 X150.107 Y91.000 E0.02819
G1 X149.019 Y91.535 E0.03802
G1 X148.902 Y91.846 E0.01042
G1 X148.451 Y92.558 E0.02643
G1 X147.701 Y93.294 E0.03294
G1 X146.143 Y94.029 E0.05403
G1 X145.168 Y94.211 E0.03110
G1 X144.630 Y94.220 E0.01685
G1 X144.622 Y97.900 E0.11538
G1 X144.635 Y98.097 E0.00619
G1 X144.516 Y100.213 E0.06644
G1 X144.190 Y101.004 E0.02683
G1 X143.699 Y101.729 E0.02747
G1 X143.197 Y102.206 E0.02172
G1 X142.814 Y102.603 E0.01728
G1 X142.305 Y102.948 E0.01930
G1 X142.302 Y109.073 E0.19202
G1 X142.187 Y109.792 E0.02285
G1 X141.591 Y111.070 E0.04420
G1 X141.242 Y111.459 E0.01639
G1 X141.965 Y112.212 E0.03272
G1 X142.508 Y113.173 E0.03461
G1 X142.806 Y114.419 E0.04017
G1 X142.806 Y121.794 E0.23125
G1 X142.574 Y122.912 E0.03578
G1 X142.295 Y123.499 E0.02037
G1 X142.306 Y127.657 E0.13037
M73 P1 R60
G1 X141.949 Y128.984 E0.04309
M73 Q1 S61
G1 X141.393 Y129.845 E0.03215
G1 X140.680 Y130.519 E0.03076
G1 X139.371 Y131.158 E0.04565
G1 X138.900 Y131.322 E0.01564
G1 X138.365 Y131.452 E0.01728
G1 X134.175 Y131.479 E0.13136
G1 X133.301 Y131.825 E0.02949
G1 X132.444 Y131.989 E0.02735
G1 X127.629 Y131.989 E0.15096
G1 X127.488 Y132.210 E0.00822
G1 X126.766 Y132.938 E0.03214
G1 X125.991 Y133.425 E0.02871
G1 X125.727 Y133.527 E0.00887
G1 X125.315 Y134.324 E0.02812
G1 X124.607 Y135.121 E0.03344
G1 X123.701 Y135.735 E0.03430
G1 X123.242 Y135.907 E0.01537
G1 X122.924 Y136.596 E0.02378
G1 X122.035 Y137.614 E0.04238
G1 X121.193 Y138.131 E0.03097
G1 X120.265 Y138.425 E0.03052
G1 X119.040 Y138.459 E0.03844
G1 X118.998 Y138.807 E0.01101
G1 X119.008 Y139.447 E0.02006
G1 X118.813 Y140.341 E0.02866
G1 X118.195 Y141.494 E0.04104
G1 X117.405 Y142.284 E0.03502
G1 X116.452 Y142.839 E0.03459
G1 X115.281 Y143.132 E0.03786
G1 X109.949 Y143.129 E0.16716
G1 X109.258 Y143.247 E0.02198
G1 X108.410 Y143.247 E0.02659
G1 X107.889 Y143.131 E0.01675
G1 X107.661 Y143.130 E0.00714
G1 X106.973 Y143.247 E0.02189
G1 X105.360 Y143.247 E0.05056
G1 X104.180 Y142.926 E0.03832
G1 X103.296 Y142.361 E0.03291
G1 X102.022 Y141.058 E0.05715
G1 X101.589 Y140.330 E0.02655
G1 X100.860 Y139.896 E0.02661
G1 X99.517 Y138.571 E0.05917
G1 X99.084 Y137.929 E0.02425
G1 X98.711 Y136.817 E0.03679
G1 X98.686 Y136.361 E0.01432
G1 X98.059 Y136.136 E0.02088
G1 X97.326 Y135.621 E0.02807
G1 X94.396 Y132.697 E0.12981
G1 X93.900 Y131.958 E0.02790
G1 X93.540 Y130.811 E0.03769
G1 X93.520 Y129.735 E0.03374
G1 X93.633 Y129.113 E0.01982
G1 X93.630 Y123.627 E0.17202
G1 X93.749 Y123.040 E0.01876
G1 X93.828 Y122.412 E0.01986
G1 X94.067 Y121.731 E0.02263
G1 X94.716 Y120.730 E0.03740
G1 X97.183 Y118.393 E0.10655
G1 X97.992 Y117.994 E0.02828
G1 X98.871 Y117.776 E0.02842
G1 X100.033 Y117.749 E0.03642
G1 X101.412 Y116.380 E0.06093
G1 X102.800 Y115.657 E0.04907
G1 X103.267 Y115.556 E0.01500
G1 X103.571 Y115.533 E0.00954
G1 X104.162 Y115.413 E0.01891
G1 X108.703 Y115.416 E0.14239
G1 X109.575 Y115.559 E0.02769
G1 X111.059 Y116.322 E0.05232
G1 X111.896 Y117.133 E0.03655
