; generated by PrusaSlicer 2.3.1+linux-x64 on 2021-06-16 at 04:42:07 UTC

; 

; external perimeters extrusion width = 0.45mm
; perimeters extrusion width = 0.45mm
; infill extrusion width = 0.45mm
; solid infill extrusion width = 0.45mm
; top infill extrusion width = 0.40mm
; support material extrusion width = 0.35mm
; first layer extrusion width = 0.42mm

M73 P0 R104
M73 Q0 S105
M201 X1000 Y1000 Z200 E5000 ; sets maximum accelerations, mm/sec^2
M203 X200 Y200 Z12 E120 ; sets maximum feedrates, mm/sec
M204 P1250 R1250 T1250 ; sets acceleration (P, T) and retract acceleration (R), mm/sec^2
M205 X8.00 Y8.00 Z0.40 E4.50 ; sets the jerk limits, mm/sec
M205 S0 T0 ; sets the minimum extruding and travel feed rate, mm/sec
M107
;TYPE:Custom
M862.3 P "MK3S" ; printer model check
M862.1 P0.4 ; nozzle diameter check
M115 U3.9.3 ; tell printer latest fw version
G90 ; use absolute coordinates
M83 ; extruder relative mode
M104 S205 ; set extruder temp
M140 S70 ; set bed temp
M190 S70 ; wait for bed temp
M109 S205 ; wait for extruder temp
G28 W ; home all without mesh bed level
G80 ; mesh bed leveling
G1 Y-3.0 F1000.0 ; go outside print area
G92 E0.0
G1 X60.0 E9.0 F1000.0 ; intro line
G1 X100.0 E12.5 F1000.0 ; intro line
G92 E0.0
M221 S95

; Don't change E values below. Excessive value can damage the printer.
M907 E430 ; set extruder motor current
G21 ; set units to millimeters
G90 ; use absolute coordinates
M83 ; use relative distances for extrusion
M900 K0.05 ; Filament gcode LA 1.5
M900 K30 ; Filament gcode LA 1.0
;LAYER_CHANGE
;Z:0.2
;HEIGHT:0.2
;BEFORE_LAYER_CHANGE
G92 E0.0
;0.2


G1 E-0.80000 F2100.000
G1 Z0.400 F10800.000
;AFTER_LAYER_CHANGE
;0.2
G1 X78.594 Y77.634
G1 Z0.200
G1 E0.80000 F2100.000
M204 S1000
;TYPE:Skirt
;WIDTH:0.42
G1 F1200.000
G1 X79.606 Y76.609 E0.04516
G1 X80.415 Y76.121 E0.02961
G1 X80.517 Y75.887 E0.00802
G1 X81.230 Y74.875 E0.03879
G1 X82.221 Y74.060 E0.04024
G1 X82.753 Y73.810 E0.01843
G1 X83.434 Y72.773 E0.03888
G1 X84.373 Y71.927 E0.03966
G1 X86.009 Y71.190 E0.05624
G1 X87.275 Y70.990 E0.04018
G1 X101.970 Y70.983 E0.46077
G1 X102.668 Y70.867 E0.02218
G1 X104.017 Y70.925 E0.04234
G1 X105.121 Y71.284 E0.03641
G1 X106.074 Y71.899 E0.03557
G1 X107.642 Y73.492 E0.07008
G1 X107.982 Y74.043 E0.02029
G1 X108.533 Y74.382 E0.02028
G1 X109.309 Y75.141 E0.03404
G1 X110.158 Y74.309 E0.03725
G1 X111.088 Y73.838 E0.03268
G1 X111.252 Y73.496 E0.01190
G1 X112.294 Y72.218 E0.05170
G1 X113.208 Y71.626 E0.03413
G1 X114.330 Y71.185 E0.03781
G1 X115.097 Y71.039 E0.02450
G1 X115.739 Y70.979 E0.02021
G1 X130.276 Y70.985 E0.45579
G1 X130.996 Y70.866 E0.02287
G1 X132.170 Y70.898 E0.03684
G1 X133.349 Y71.243 E0.03849
G1 X134.404 Y71.906 E0.03907
G1 X135.904 Y73.418 E0.06679
G1 X136.291 Y74.039 E0.02294
G1 X136.865 Y74.394 E0.02115
G1 X138.541 Y76.065 E0.07421
G1 X139.213 Y77.272 E0.04329
G1 X139.479 Y78.517 E0.03994
G1 X139.470 Y79.444 E0.02906
G1 X139.358 Y80.073 E0.02004
G1 X139.479 Y80.725 E0.02078
G1 X139.473 Y81.699 E0.03053
G1 X139.360 Y82.346 E0.02060
G1 X139.364 Y87.803 E0.17109
G1 X139.140 Y88.831 E0.03299
G1 X139.993 Y89.683 E0.03780
G1 X140.696 Y89.938 E0.02346
G1 X141.526 Y90.473 E0.03093
G1 X142.943 Y91.903 E0.06314
G1 X143.599 Y92.984 E0.03964
G1 X143.974 Y94.270 E0.04202
G1 X144.008 Y105.246 E0.34414
G1 X144.022 Y105.467 E0.00693
G1 X143.946 Y107.462 E0.06262
G1 X143.485 Y108.741 E0.04262
G1 X142.684 Y109.846 E0.04277
G1 X141.615 Y110.656 E0.04208
G1 X140.419 Y111.160 E0.04069
G1 X139.476 Y111.346 E0.03012
G1 X139.467 Y111.764 E0.01310
G1 X139.360 Y112.347 E0.01861
G1 X139.358 Y117.851 E0.17258
G1 X139.142 Y118.831 E0.03145
G1 X139.994 Y119.683 E0.03777
G1 X140.682 Y119.932 E0.02296
G1 X141.476 Y120.431 E0.02938
G1 X142.859 Y121.799 E0.06100
G1 X143.573 Y122.926 E0.04184
G1 X143.963 Y124.199 E0.04174
G1 X144.021 Y136.948 E0.39976
G1 X143.708 Y138.262 E0.04235
G1 X143.040 Y139.439 E0.04242
G1 X141.801 Y140.545 E0.05209
G1 X140.186 Y141.222 E0.05489
G1 X139.210 Y141.356 E0.03087
G1 X138.784 Y141.338 E0.01337
G1 X137.718 Y141.345 E0.03344
G1 X136.772 Y141.729 E0.03201
G1 X136.028 Y141.838 E0.02357
G1 X135.495 Y141.846 E0.01671
G1 X134.862 Y141.958 E0.02015
G1 X133.870 Y141.964 E0.03110
G1 X133.292 Y141.846 E0.01850
G1 X132.513 Y141.837 E0.02444
G1 X122.555 Y141.844 E0.31221
G1 X121.899 Y141.959 E0.02090
G1 X120.825 Y141.953 E0.03365
G1 X119.649 Y141.656 E0.03805
G1 X118.629 Y141.082 E0.03670
G1 X116.520 Y139.013 E0.09263
G1 X114.961 Y139.016 E0.04890
G1 X114.481 Y139.716 E0.02662
G1 X113.375 Y140.613 E0.04463
M73 Q0 S104
G1 X111.539 Y141.298 E0.06146
G1 X110.801 Y141.359 E0.02321
G1 X110.454 Y141.338 E0.01089
G1 X109.408 Y141.345 E0.03281
G1 X108.614 Y141.683 E0.02705
G1 X107.728 Y141.836 E0.02819
G1 X107.171 Y141.846 E0.01748
G1 X106.470 Y141.964 E0.02229
G1 X105.544 Y141.964 E0.02901
G1 X104.973 Y141.846 E0.01828
G1 X104.195 Y141.837 E0.02441
G1 X94.234 Y141.844 E0.31231
G1 X93.581 Y141.959 E0.02080
G1 X92.601 Y141.965 E0.03072
G1 X91.331 Y141.656 E0.04098
G1 X90.311 Y141.082 E0.03671
G1 X88.200 Y139.010 E0.09274
G1 X84.313 Y138.987 E0.12188
G1 X83.066 Y138.667 E0.04036
G1 X81.910 Y138.011 E0.04167
G1 X80.824 Y136.955 E0.04750
G1 X80.343 Y136.130 E0.02993
G1 X79.537 Y135.648 E0.02944
G1 X78.410 Y134.512 E0.05018
G1 X77.900 Y133.618 E0.03225
G1 X77.546 Y132.250 E0.04432
G1 X77.551 Y131.262 E0.03098
G1 X77.667 Y130.604 E0.02095
G1 X77.674 Y129.767 E0.02623
G1 X77.671 Y109.995 E0.61994
G1 X78.097 Y108.478 E0.04943
G1 X78.673 Y107.532 E0.03470
G1 X79.653 Y106.573 E0.04300
G1 X80.387 Y106.155 E0.02650
G1 X79.480 Y105.603 E0.03330
G1 X78.344 Y104.424 E0.05133
G1 X77.847 Y103.487 E0.03324
G1 X77.546 Y102.241 E0.04019
G1 X77.551 Y101.262 E0.03071
G1 X77.667 Y100.604 E0.02095
G1 X77.674 Y99.768 E0.02621
G1 X77.661 Y80.085 E0.61714
G1 X77.981 Y78.752 E0.04299
G1 X78.565 Y77.686 E0.03809
G1 X78.881 Y77.880 F10800.000
G1 F1200.000
G1 X79.857 Y76.892 E0.04356
G1 X80.717 Y76.380 E0.03137
G1 X80.840 Y76.083 E0.01009
G1 X81.490 Y75.150 E0.03567
G1 X82.441 Y74.368 E0.03861
G1 X83.061 Y74.085 E0.02138
G1 X83.143 Y73.889 E0.00664
G1 X83.704 Y73.038 E0.03198
G1 X84.603 Y72.227 E0.03797
G1 X86.138 Y71.545 E0.05266
G1 X87.317 Y71.365 E0.03739
G1 X102.003 Y71.360 E0.46046
G1 X102.674 Y71.245 E0.02136
G1 X103.928 Y71.293 E0.03933
G1 X104.938 Y71.615 E0.03326
G1 X105.852 Y72.205 E0.03410
G1 X107.357 Y73.740 E0.06740
G1 X107.707 Y74.318 E0.02118
G1 X108.285 Y74.668 E0.02119
G1 X109.381 Y75.738 E0.04803
G1 X109.648 Y75.337 E0.01510
G1 X110.400 Y74.600 E0.03302
G1 X111.376 Y74.117 E0.03415
G1 X111.561 Y73.712 E0.01394
G1 X112.526 Y72.517 E0.04815
G1 X113.364 Y71.970 E0.03139
G1 X114.451 Y71.543 E0.03662
G1 X115.158 Y71.411 E0.02254
G1 X115.748 Y71.356 E0.01857
G1 X130.311 Y71.362 E0.45661
G1 X131.004 Y71.244 E0.02207
G1 X132.135 Y71.275 E0.03546
G1 X133.216 Y71.596 E0.03536
G1 X134.151 Y72.186 E0.03467
G1 X135.620 Y73.668 E0.06542
G1 X136.018 Y74.314 E0.02378
G1 X136.615 Y74.678 E0.02193
G1 X138.256 Y76.313 E0.07263
G1 X138.869 Y77.428 E0.03990
G1 X139.102 Y78.534 E0.03544
G1 X139.093 Y79.424 E0.02791
G1 X138.984 Y80.023 E0.01907
G1 X138.985 Y80.191 E0.00530
G1 X139.102 Y80.746 E0.01776
G1 X139.096 Y81.680 E0.02930
G1 X138.983 Y82.312 E0.02013
G1 X138.986 Y87.782 E0.17150
G1 X138.727 Y88.951 E0.03755
G1 X139.787 Y90.010 E0.04700
G1 X140.511 Y90.267 E0.02409
G1 X141.304 Y90.778 E0.02957
G1 X142.659 Y92.151 E0.06048
G1 X143.263 Y93.156 E0.03676
G1 X143.604 Y94.349 E0.03890
G1 X143.631 Y105.260 E0.34211
G1 X143.645 Y105.463 E0.00638
G1 X143.571 Y107.418 E0.06134
G1 X143.140 Y108.586 E0.03904
G1 X142.433 Y109.563 E0.03782
G1 X141.446 Y110.318 E0.03897
G1 X140.291 Y110.804 E0.03929
G1 X139.434 Y110.969 E0.02735
G1 X139.101 Y110.975 E0.01043
G1 X139.093 Y111.712 E0.02310
G1 X138.983 Y112.313 E0.01915
G1 X138.981 Y117.830 E0.17298
G1 X138.728 Y118.950 E0.03601
G1 X139.788 Y120.010 E0.04700
G1 X140.500 Y120.262 E0.02368
G1 X141.257 Y120.739 E0.02805
G1 X142.577 Y122.051 E0.05836
G1 X143.240 Y123.105 E0.03903
G1 X143.594 Y124.281 E0.03851
G1 X143.644 Y136.927 E0.39650
G1 X143.348 Y138.147 E0.03936
G1 X142.729 Y139.223 E0.03893
G1 X141.576 Y140.241 E0.04824
G1 X140.066 Y140.863 E0.05119
G1 X139.179 Y140.979 E0.02804
G1 X138.793 Y140.961 E0.01214
G1 X137.641 Y140.969 E0.03610
G1 X136.693 Y141.359 E0.03215
G1 X135.986 Y141.463 E0.02242
G1 X135.459 Y141.470 E0.01652
G1 X134.843 Y141.581 E0.01962
G1 X133.889 Y141.587 E0.02992
G1 X133.335 Y141.469 E0.01777
G1 X132.515 Y141.460 E0.02571
G1 X122.521 Y141.467 E0.31335
G1 X121.881 Y141.582 E0.02039
G1 X120.895 Y141.582 E0.03092
G1 X119.766 Y141.297 E0.03648
G1 X118.838 Y140.767 E0.03353
G1 X116.675 Y138.635 E0.09522
G1 X114.758 Y138.640 E0.06010
G1 X114.221 Y139.442 E0.03027
G1 X113.162 Y140.300 E0.04272
G1 X111.435 Y140.935 E0.05771
G1 X110.788 Y140.982 E0.02033
G1 X110.466 Y140.961 E0.01012
G1 X109.328 Y140.969 E0.03568
G1 X108.527 Y141.316 E0.02735
G1 X107.679 Y141.462 E0.02699
G1 X107.136 Y141.470 E0.01703
G1 X106.453 Y141.586 E0.02172
G1 X105.565 Y141.586 E0.02785
G1 X105.016 Y141.469 E0.01760
G1 X104.197 Y141.460 E0.02569
G1 X94.200 Y141.467 E0.31344
G1 X93.562 Y141.582 E0.02032
G1 X92.623 Y141.587 E0.02945
G1 X91.448 Y141.297 E0.03795
G1 X90.520 Y140.767 E0.03351
G1 X88.355 Y138.633 E0.09529
G1 X84.384 Y138.616 E0.12452
G1 X83.185 Y138.308 E0.03881
G1 X82.120 Y137.696 E0.03852
G1 X81.107 Y136.704 E0.04443
G1 X80.621 Y135.856 E0.03066
G1 X79.786 Y135.364 E0.03038
G1 X78.723 Y134.301 E0.04713
G1 X78.258 Y133.497 E0.02913
G1 X77.923 Y132.227 E0.04119
G1 X77.928 Y131.281 E0.02967
G1 X78.044 Y130.640 E0.02043
G1 X78.051 Y129.769 E0.02730
G1 X78.048 Y110.022 E0.61915
G1 X78.452 Y108.607 E0.04614
G1 X78.981 Y107.751 E0.03155
G1 X79.896 Y106.862 E0.04001
G1 X80.696 Y106.419 E0.02867
G1 X80.798 Y106.187 E0.00794
G1 X80.634 Y105.859 E0.01149
G1 X79.732 Y105.322 E0.03291
G1 X78.663 Y104.221 E0.04810
G1 X78.207 Y103.373 E0.03020
G1 X77.923 Y102.220 E0.03724
G1 X77.928 Y101.281 E0.02944
G1 X78.044 Y100.640 E0.02043
G1 X78.051 Y99.769 E0.02729
G1 X78.038 Y80.108 E0.61647
G1 X78.342 Y78.866 E0.04010
G1 X78.852 Y77.933 E0.03334
G1 X79.181 Y78.115 F10800.000
G1 F1200.000
G1 X80.108 Y77.174 E0.04141
G1 X80.751 Y76.786 E0.02356
G1 X81.002 Y76.688 E0.00845
G1 X81.164 Y76.277 E0.01386
G1 X81.750 Y75.424 E0.03246
G1 X82.660 Y74.676 E0.03692
G1 X83.359 Y74.366 E0.02399
G1 X83.470 Y74.077 E0.00969
G1 X84.005 Y73.266 E0.03047
G1 X84.831 Y72.529 E0.03472
G1 X86.265 Y71.900 E0.04909
G1 X87.358 Y71.740 E0.03462
G1 X102.037 Y71.737 E0.46025
G1 X102.683 Y71.622 E0.02057
G1 X103.838 Y71.660 E0.03626
G1 X104.799 Y71.966 E0.03161
G1 X105.628 Y72.509 E0.03107
G1 X107.071 Y73.986 E0.06477
G1 X107.432 Y74.593 E0.02213
G1 X108.038 Y74.954 E0.02213
G1 X109.452 Y76.334 E0.06195
G1 X109.928 Y75.590 E0.02770
G1 X110.641 Y74.891 E0.03130
G1 X111.667 Y74.396 E0.03571
G1 X111.872 Y73.927 E0.01607
G1 X112.759 Y72.815 E0.04457
G1 X113.521 Y72.313 E0.02863
G1 X114.538 Y71.910 E0.03430
G1 X115.209 Y71.785 E0.02140
G1 X115.471 Y71.773 E0.00820
G1 X115.764 Y71.734 E0.00929
G1 X130.345 Y71.739 E0.45719
M73 P0 R103
G1 X131.014 Y71.621 E0.02127
G1 X132.100 Y71.651 E0.03407
G1 X133.038 Y71.930 E0.03068
G1 X133.899 Y72.468 E0.03183
G1 X135.336 Y73.917 E0.06400
G1 X135.744 Y74.590 E0.02466
G1 X136.366 Y74.962 E0.02273
G1 X137.970 Y76.560 E0.07100
G1 X138.524 Y77.583 E0.03646
G1 X138.724 Y78.551 E0.03100
G1 X138.717 Y79.404 E0.02675
G1 X138.607 Y79.988 E0.01863
G1 X138.608 Y80.234 E0.00772
G1 X138.725 Y80.765 E0.01706
G1 X138.719 Y81.661 E0.02808
G1 X138.606 Y82.277 E0.01966
G1 X138.609 Y87.761 E0.17192
G1 X138.376 Y88.789 E0.03307
G1 X138.268 Y89.026 E0.00816
G1 X139.582 Y90.338 E0.05824
G1 X140.328 Y90.598 E0.02475
G1 X141.051 Y91.059 E0.02687
G1 X142.374 Y92.399 E0.05907
G1 X142.925 Y93.327 E0.03382
G1 X143.234 Y94.425 E0.03579
G1 X143.254 Y105.274 E0.34016
G1 X143.268 Y105.459 E0.00582
G1 X143.195 Y107.372 E0.06001
G1 X142.796 Y108.429 E0.03541
G1 X142.181 Y109.282 E0.03298
G1 X141.276 Y109.981 E0.03586
G1 X140.200 Y110.438 E0.03665
G1 X139.383 Y110.595 E0.02608
G1 X138.726 Y110.594 E0.02060
G1 X138.719 Y111.661 E0.03346
G1 X138.606 Y112.278 E0.01969
G1 X138.604 Y117.808 E0.17338
G1 X138.378 Y118.787 E0.03149
G1 X138.269 Y119.024 E0.00821
G1 X139.583 Y120.339 E0.05827
G1 X140.319 Y120.594 E0.02444
G1 X141.007 Y121.022 E0.02538
G1 X142.296 Y122.304 E0.05702
G1 X142.887 Y123.238 E0.03465
G1 X143.225 Y124.363 E0.03685
G1 X143.267 Y136.906 E0.39325
G1 X143.008 Y137.982 E0.03472
G1 X142.418 Y139.007 E0.03708
G1 X141.353 Y139.936 E0.04431
G1 X139.949 Y140.504 E0.04749
G1 X139.151 Y140.603 E0.02520
G1 X138.803 Y140.584 E0.01094
G1 X137.564 Y140.592 E0.03884
G1 X136.615 Y140.990 E0.03227
G1 X135.944 Y141.088 E0.02125
G1 X135.423 Y141.093 E0.01635
G1 X134.824 Y141.204 E0.01910
G1 X133.908 Y141.210 E0.02869
G1 X133.379 Y141.092 E0.01701
G1 X132.517 Y141.083 E0.02703
G1 X122.486 Y141.090 E0.31451
G1 X121.861 Y141.205 E0.01992
G1 X120.963 Y141.210 E0.02815
G1 X119.885 Y140.938 E0.03487
G1 X119.049 Y140.453 E0.03031
G1 X116.830 Y138.258 E0.09787
G1 X114.553 Y138.263 E0.07139
G1 X113.960 Y139.168 E0.03392
G1 X112.950 Y139.987 E0.04077
G1 X111.333 Y140.571 E0.05389
G1 X110.779 Y140.605 E0.01743
G1 X110.478 Y140.584 E0.00944
G1 X109.248 Y140.592 E0.03856
G1 X108.399 Y140.960 E0.02902
G1 X107.633 Y141.087 E0.02436
G1 X107.101 Y141.093 E0.01666
G1 X106.436 Y141.209 E0.02117
G1 X105.586 Y141.209 E0.02665
G1 X105.060 Y141.092 E0.01689
G1 X104.199 Y141.083 E0.02701
G1 X94.165 Y141.090 E0.31461
G1 X93.543 Y141.205 E0.01984
G1 X92.645 Y141.210 E0.02815
G1 X91.567 Y140.938 E0.03487
G1 X90.730 Y140.453 E0.03031
G1 X88.511 Y138.257 E0.09791
G1 X84.453 Y138.245 E0.12724
G1 X83.350 Y137.968 E0.03565
G1 X82.329 Y137.382 E0.03691
G1 X81.392 Y136.455 E0.04131
G1 X80.899 Y135.582 E0.03146
G1 X80.034 Y135.078 E0.03138
G1 X79.035 Y134.088 E0.04410
G1 X78.615 Y133.373 E0.02599
G1 X78.300 Y132.203 E0.03800
G1 X78.305 Y131.300 E0.02832
G1 X78.421 Y130.676 E0.01990
G1 X78.428 Y129.770 E0.02840
G1 X78.425 Y110.049 E0.61834
G1 X78.807 Y108.739 E0.04280
G1 X79.287 Y107.971 E0.02839
G1 X80.139 Y107.152 E0.03705
G1 X80.990 Y106.689 E0.03038
G1 X81.214 Y106.176 E0.01757
G1 X80.920 Y105.590 E0.02054
G1 X79.983 Y105.039 E0.03409
G1 X78.981 Y104.017 E0.04488
G1 X78.567 Y103.257 E0.02715
G1 X78.300 Y102.198 E0.03424
G1 X78.305 Y101.300 E0.02815
G1 X78.421 Y100.676 E0.01990
G1 X78.428 Y99.771 E0.02839
G1 X78.415 Y80.131 E0.61578
G1 X78.701 Y78.982 E0.03715
G1 X79.152 Y78.168 E0.02917
G1 X79.480 Y78.352 F10800.000
G1 F1200.000
G1 X79.512 Y78.295 E0.00205
G1 X80.356 Y77.459 E0.03724
G1 X80.927 Y77.120 E0.02083
G1 X81.295 Y76.984 E0.01231
G1 X81.489 Y76.468 E0.01727
G1 X82.011 Y75.697 E0.02919
G1 X82.878 Y74.985 E0.03519
G1 X83.660 Y74.648 E0.02671
G1 X83.798 Y74.265 E0.01277
G1 X84.306 Y73.495 E0.02891
G1 X85.057 Y72.832 E0.03142
G1 X86.390 Y72.257 E0.04551
G1 X87.397 Y72.115 E0.03186
G1 X102.072 Y72.114 E0.46012
G1 X102.693 Y71.999 E0.01982
G1 X103.752 Y72.028 E0.03321
G1 X104.616 Y72.297 E0.02839
G1 X105.373 Y72.787 E0.02827
G1 X106.785 Y74.233 E0.06334
G1 X107.156 Y74.869 E0.02310
G1 X107.792 Y75.240 E0.02310
G1 X109.286 Y76.699 E0.06547
G1 X109.554 Y77.125 E0.01577
G1 X109.776 Y76.530 E0.01990
G1 X110.208 Y75.843 E0.02545
G1 X110.882 Y75.183 E0.02957
G1 X111.959 Y74.676 E0.03734
G1 X112.186 Y74.138 E0.01829
G1 X112.993 Y73.112 E0.04094
G1 X113.680 Y72.656 E0.02586
G1 X114.626 Y72.277 E0.03194
G1 X115.264 Y72.158 E0.02035
G1 X115.504 Y72.150 E0.00753
G1 X115.778 Y72.111 E0.00868
G1 X129.440 Y72.123 E0.42835
G1 X130.381 Y72.116 E0.02954
G1 X131.024 Y71.999 E0.02046
G1 X132.064 Y72.027 E0.03263
G1 X132.904 Y72.283 E0.02753
G1 X133.646 Y72.748 E0.02749
G1 X135.052 Y74.166 E0.06258
G1 X135.469 Y74.867 E0.02557
G1 X136.117 Y75.246 E0.02356
G1 X137.683 Y76.807 E0.06932
G1 X138.178 Y77.735 E0.03297
G1 X138.347 Y78.567 E0.02661
G1 X138.340 Y79.383 E0.02559
G1 X138.230 Y79.952 E0.01818
G1 X138.231 Y80.278 E0.01023
G1 X138.347 Y80.786 E0.01633
G1 X138.342 Y81.641 E0.02682
G1 X138.229 Y82.242 E0.01917
G1 X138.232 Y87.739 E0.17235
G1 X138.015 Y88.679 E0.03025
