; generated by PrusaSlicer 2.3.1+linux-x64 on 2021-06-11 at 17:06:33 UTC

; 

; external perimeters extrusion width = 0.45mm
; perimeters extrusion width = 0.45mm
; infill extrusion width = 0.45mm
; solid infill extrusion width = 0.45mm
; top infill extrusion width = 0.40mm
; support material extrusion width = 0.35mm
; first layer extrusion width = 0.42mm

M73 P0 R45
M73 Q0 S45
M201 X1000 Y1000 Z200 E5000 ; sets maximum accelerations, mm/sec^2
M203 X200 Y200 Z12 E120 ; sets maximum feedrates, mm/sec
M204 P1250 R1250 T1250 ; sets acceleration (P, T) and retract acceleration (R), mm/sec^2
M205 X8.00 Y8.00 Z0.40 E4.50 ; sets the jerk limits, mm/sec
M205 S0 T0 ; sets the minimum extruding and travel feed rate, mm/sec
M107
;TYPE:Custom
M862.3 P "MK3S" ; printer model check
M862.1 P0.4 ; nozzle diameter check
M115 U3.9.3 ; tell printer latest fw version
G90 ; use absolute coordinates
M83 ; extruder relative mode
M104 S205 ; set extruder temp
M140 S70 ; set bed temp
M190 S70 ; wait for bed temp
M109 S205 ; wait for extruder temp
G28 W ; home all without mesh bed level
G80 ; mesh bed leveling
G1 Y-3.0 F1000.0 ; go outside print area
G92 E0.0
G1 X60.0 E9.0 F1000.0 ; intro line
G1 X100.0 E12.5 F1000.0 ; intro line
G92 E0.0
M221 S95

; Don't change E values below. Excessive value can damage the printer.
M907 E430 ; set extruder motor current
G21 ; set units to millimeters
G90 ; use absolute coordinates
M83 ; use relative distances for extrusion
M900 K0.05 ; Filament gcode LA 1.5
M900 K30 ; Filament gcode LA 1.0
;LAYER_CHANGE
;Z:0.2
;HEIGHT:0.2
;BEFORE_LAYER_CHANGE
G92 E0.0
;0.2


G1 E-0.80000 F2100.000
G1 Z0.400 F10800.000
;AFTER_LAYER_CHANGE
;0.2
G1 X96.070 Y95.861
G1 Z0.200
G1 E0.80000 F2100.000
M204 S1000
;TYPE:Skirt
;WIDTH:0.42
G1 F1200.000
G1 X96.631 Y94.882 E0.03537
G1 X101.316 Y90.043 E0.21117
G1 X101.815 Y89.632 E0.02028
G1 X102.377 Y89.312 E0.02028
G1 X102.986 Y89.093 E0.02028
G1 X103.623 Y88.982 E0.02028
G1 X137.522 Y86.873 E1.06493
G1 X139.927 Y87.089 E0.07573
G1 X142.463 Y87.817 E0.08270
G1 X144.304 Y88.692 E0.06393
G1 X146.011 Y89.870 E0.06501
G1 X147.908 Y91.715 E0.08298
G1 X149.294 Y93.702 E0.07597
G1 X150.367 Y96.110 E0.08267
G1 X150.882 Y98.089 E0.06411
G1 X151.076 Y100.148 E0.06486
G1 X150.889 Y102.760 E0.08208
G1 X150.148 Y105.380 E0.08537
G1 X149.254 Y107.256 E0.06516
G1 X147.939 Y109.135 E0.07192
G1 X130.881 Y127.168 E0.77828
G1 X130.350 Y127.600 E0.02148
G1 X129.750 Y127.930 E0.02148
G1 X129.099 Y128.145 E0.02148
G1 X128.421 Y128.240 E0.02148
G1 X108.334 Y128.232 E0.62982
G1 X107.424 Y128.044 E0.02911
G1 X100.269 Y125.493 E0.23818
G1 X99.550 Y125.123 E0.02537
G1 X98.929 Y124.611 E0.02522
G1 X96.467 Y121.766 E0.11796
G1 X96.050 Y120.958 E0.02851
G1 X95.839 Y120.069 E0.02866
G1 X95.824 Y96.967 E0.72436
G1 X96.057 Y95.920 E0.03363
G1 X96.423 Y96.003 F10800.000
G1 F1200.000
G1 X96.944 Y95.095 E0.03280
G1 X101.592 Y90.300 E0.20940
G1 X102.551 Y89.648 E0.03635
G1 X103.668 Y89.356 E0.03621
G1 X137.520 Y87.250 E1.06344
G1 X140.066 Y87.506 E0.08024
G1 X142.029 Y88.045 E0.06385
G1 X143.851 Y88.881 E0.06285
G1 X145.963 Y90.307 E0.07989
G1 X147.624 Y91.963 E0.07353
G1 X148.966 Y93.886 E0.07353
G1 X150.004 Y96.213 E0.07991
G1 X150.511 Y98.157 E0.06297
G1 X150.701 Y100.180 E0.06370
G1 X150.511 Y102.730 E0.08018
G1 X149.804 Y105.225 E0.08131
G1 X148.930 Y107.064 E0.06384
G1 X147.645 Y108.900 E0.07026
G1 X130.603 Y126.913 E0.77749
G1 X130.125 Y127.297 E0.01924
G1 X129.582 Y127.592 E0.01938
G1 X128.994 Y127.783 E0.01938
G1 X128.385 Y127.864 E0.01924
G1 X108.358 Y127.855 E0.62794
G1 X107.540 Y127.685 E0.02619
G1 X100.409 Y125.143 E0.23739
G1 X99.751 Y124.804 E0.02321
G1 X99.185 Y124.334 E0.02307
G1 X96.790 Y121.570 E0.11467
G1 X96.405 Y120.828 E0.02619
G1 X96.212 Y120.016 E0.02619
G1 X96.201 Y96.984 E0.72213
G1 X96.410 Y96.061 E0.02968
G1 X96.775 Y96.145 F10800.000
G1 F1200.000
G1 X97.253 Y95.312 E0.03012
G1 X101.868 Y90.558 E0.20772
G1 X102.714 Y89.988 E0.03200
G1 X103.706 Y89.732 E0.03213
G1 X137.522 Y87.627 E1.06233
G1 X139.976 Y87.872 E0.07732
G1 X141.899 Y88.399 E0.06253
G1 X143.692 Y89.223 E0.06185
G1 X145.728 Y90.603 E0.07712
G1 X147.337 Y92.207 E0.07125
G1 X148.728 Y94.247 E0.07739
G1 X149.560 Y96.059 E0.06253
G1 X150.083 Y97.965 E0.06199
G1 X150.334 Y100.412 E0.07712
G1 X150.135 Y102.693 E0.07179
G1 X149.569 Y104.806 E0.06857
M73 Q1 S45
G1 X148.738 Y106.619 E0.06252
G1 X147.350 Y108.664 E0.07752
M73 P0 R44
G1 X130.329 Y126.653 E0.77649
M73 P1 R44
G1 X129.420 Y127.251 E0.03412
G1 X128.357 Y127.487 E0.03412
G1 X108.383 Y127.479 E0.62629
G1 X107.658 Y127.327 E0.02322
G1 X100.548 Y124.793 E0.23667
G1 X99.954 Y124.486 E0.02095
G1 X99.445 Y124.060 E0.02081
G1 X97.113 Y121.374 E0.11156
G1 X96.760 Y120.703 E0.02375
G1 X96.586 Y119.966 E0.02375
G1 X96.577 Y97.007 E0.71987
G1 X96.762 Y96.204 E0.02584
G1 X97.138 Y96.239 F10800.000
G1 F1200.000
G1 X97.558 Y95.535 E0.02569
G1 X102.139 Y90.821 E0.20610
G1 X102.880 Y90.327 E0.02793
G1 X103.743 Y90.107 E0.02793
G1 X137.521 Y88.004 E1.06113
G1 X139.883 Y88.238 E0.07443
G1 X141.770 Y88.754 E0.06133
G1 X143.533 Y89.564 E0.06082
G1 X145.490 Y90.895 E0.07423
G1 X147.051 Y92.453 E0.06912
G1 X148.388 Y94.411 E0.07436
G1 X149.206 Y96.188 E0.06133
G1 X149.719 Y98.063 E0.06095
G1 X149.957 Y100.422 E0.07435
G1 X149.759 Y102.650 E0.07012
G1 X149.211 Y104.685 E0.06611
G1 X148.395 Y106.463 E0.06133
G1 X147.055 Y108.429 E0.07460
M73 Q1 S44
G1 X130.059 Y126.390 E0.77532
G1 X129.262 Y126.908 E0.02979
G1 X128.330 Y127.111 E0.02991
G1 X108.411 Y127.103 E0.62455
G1 X107.776 Y126.969 E0.02034
G1 X100.686 Y124.442 E0.23601
G1 X100.159 Y124.170 E0.01859
G1 X99.706 Y123.788 E0.01859
G1 X97.433 Y121.174 E0.10860
G1 X97.116 Y120.577 E0.02121
G1 X96.960 Y119.915 E0.02133
G1 X96.953 Y97.033 E0.71744
G1 X97.124 Y96.297 E0.02369
G1 X97.489 Y96.384 F10800.000
G1 F1200.000
G1 X97.862 Y95.760 E0.02279
G1 X102.406 Y91.087 E0.20437
G1 X103.042 Y90.667 E0.02389
G1 X103.781 Y90.482 E0.02389
G1 X137.521 Y88.381 E1.05994
G1 X139.789 Y88.603 E0.07145
G1 X141.642 Y89.108 E0.06023
G1 X143.373 Y89.906 E0.05976
G1 X145.253 Y91.189 E0.07136
G1 X146.762 Y92.695 E0.06685
G1 X148.048 Y94.573 E0.07136
G1 X148.852 Y96.318 E0.06023
G1 X149.356 Y98.163 E0.05999
G1 X149.580 Y100.428 E0.07136
G1 X149.385 Y102.600 E0.06836
G1 X148.855 Y104.562 E0.06372
G1 X148.053 Y106.303 E0.06011
G1 X146.763 Y108.191 E0.07170
G1 X129.789 Y126.125 E0.77421
G1 X129.102 Y126.566 E0.02561
G1 X128.307 Y126.735 E0.02549
G1 X108.439 Y126.727 E0.62294
G1 X107.895 Y126.611 E0.01743
G1 X100.824 Y124.091 E0.23538
G1 X100.365 Y123.854 E0.01616
G1 X99.973 Y123.520 E0.01616
G1 X97.752 Y120.971 E0.10602
G1 X97.470 Y120.449 E0.01859
G1 X97.334 Y119.872 E0.01859
G1 X97.330 Y97.055 E0.71543
G1 X97.475 Y96.442 E0.01974
G1 X97.723 Y96.931 F10800.000
G1 F1200.000
G1 X97.882 Y96.418 E0.01685
G1 X98.179 Y95.970 E0.01685
G1 X102.762 Y91.276 E0.20569
G1 X103.258 Y90.986 E0.01801
G1 X103.818 Y90.858 E0.01801
G1 X137.522 Y88.758 E1.05881
G1 X139.697 Y88.969 E0.06852
G1 X141.512 Y89.462 E0.05898
G1 X143.214 Y90.248 E0.05877
G1 X145.017 Y91.482 E0.06850
G1 X146.472 Y92.936 E0.06450
G1 X147.709 Y94.738 E0.06851
G1 X148.497 Y96.445 E0.05898
G1 X148.991 Y98.260 E0.05898
G1 X149.202 Y100.435 E0.06851
G1 X149.010 Y102.548 E0.06651
G1 X148.500 Y104.435 E0.06132
G1 X147.710 Y106.147 E0.05909
G1 X146.470 Y107.954 E0.06872
G1 X129.434 Y125.935 E0.77664
G1 X128.894 Y126.243 E0.01948
G1 X128.280 Y126.358 E0.01959
G1 X108.332 Y126.334 E0.62548
G1 X100.732 Y123.635 E0.25286
G1 X100.245 Y123.260 E0.01927
G1 X98.123 Y120.836 E0.10099
G1 X97.815 Y120.293 E0.01959
G1 X97.701 Y119.679 E0.01959
G1 X97.723 Y96.991 E0.71136
M73 P2 R44
M73 Q2 S44
G1 X98.096 Y96.992 F10800.000
G1 F1200.000
G1 X98.225 Y96.574 E0.01371
G1 X98.468 Y96.213 E0.01365
G1 X103.007 Y91.563 E0.20372
G1 X103.402 Y91.334 E0.01431
G1 X103.847 Y91.233 E0.01431
G1 X137.520 Y89.135 E1.05785
G1 X139.601 Y89.333 E0.06554
G1 X141.384 Y89.817 E0.05791
G1 X143.055 Y90.590 E0.05772
G1 X144.778 Y91.774 E0.06558
G1 X146.183 Y93.179 E0.06228
G1 X147.369 Y94.901 E0.06558
G1 X148.143 Y96.575 E0.05781
G1 X148.627 Y98.357 E0.05791
G1 X148.825 Y100.439 E0.06558
G1 X148.639 Y102.480 E0.06426
G1 X148.144 Y104.310 E0.05943
G1 X147.370 Y105.984 E0.05781
G1 X146.179 Y107.714 E0.06586
G1 X129.190 Y125.648 E0.77454
G1 X128.756 Y125.892 E0.01563
G1 X128.265 Y125.981 E0.01563
G1 X108.391 Y125.961 E0.62315
G1 X100.911 Y123.303 E0.24890
G1 X100.517 Y122.998 E0.01563
G1 X98.410 Y120.591 E0.10030
G1 X98.166 Y120.156 E0.01563
G1 X98.077 Y119.666 E0.01563
G1 X98.096 Y97.052 E0.70905
G1 X98.468 Y97.052 F10800.000
G1 F1200.000
G1 X98.753 Y96.460 E0.02060
G1 X103.250 Y91.852 E0.20188
G1 X103.545 Y91.683 E0.01067
G1 X103.877 Y91.609 E0.01067
G1 X137.520 Y89.512 E1.05689
G1 X139.506 Y89.698 E0.06254
G1 X141.257 Y90.172 E0.05686
G1 X142.895 Y90.931 E0.05662
G1 X144.538 Y92.065 E0.06260
G1 X145.893 Y93.420 E0.06007
G1 X147.028 Y95.063 E0.06260
G1 X147.789 Y96.706 E0.05678
G1 X148.262 Y98.452 E0.05670
G1 X148.448 Y100.442 E0.06268
G1 X148.269 Y102.407 E0.06187
G1 X147.790 Y104.181 E0.05761
G1 X147.028 Y105.824 E0.05678
G1 X145.890 Y107.471 E0.06277
G1 X128.947 Y125.359 E0.77251
G1 X128.622 Y125.539 E0.01165
G1 X128.257 Y125.604 E0.01165
G1 X108.450 Y125.589 E0.62103
G1 X101.089 Y122.971 E0.24495
G1 X100.788 Y122.736 E0.01197
G1 X98.699 Y120.349 E0.09946
G1 X98.519 Y120.024 E0.01165
G1 X98.454 Y119.658 E0.01165
G1 X98.468 Y97.112 E0.70693
G1 X98.841 Y97.112 F10800.000
G1 F1200.000
G1 X99.036 Y96.709 E0.01403
G1 X103.488 Y92.145 E0.19992
G1 X103.904 Y91.985 E0.01398
G1 X137.519 Y89.889 E1.05602
G1 X139.411 Y90.063 E0.05957
G1 X141.127 Y90.526 E0.05573
G1 X142.736 Y91.273 E0.05560
G1 X144.298 Y92.356 E0.05962
G1 X145.604 Y93.662 E0.05788
G1 X146.686 Y95.222 E0.05955
G1 X147.435 Y96.835 E0.05573
G1 X147.897 Y98.549 E0.05567
G1 X148.071 Y100.442 E0.05962
G1 X147.900 Y102.329 E0.05942
G1 X147.435 Y104.054 E0.05600
G1 X146.687 Y105.664 E0.05567
G1 X145.600 Y107.230 E0.05975
G1 X128.709 Y125.066 E0.77023
G1 X128.250 Y125.227 E0.01526
G1 X108.512 Y125.217 E0.61887
G1 X101.268 Y122.639 E0.24108
G1 X98.992 Y120.112 E0.10663
G1 X98.832 Y119.652 E0.01526
G1 X98.841 Y97.172 E0.70485
G1 X99.213 Y97.165 F10800.000
G1 F1200.000
G1 X99.312 Y96.966 E0.00698
G1 X103.723 Y92.440 E0.19814
G1 X103.930 Y92.362 E0.00694
G1 X137.518 Y90.267 E1.05517
G1 X139.316 Y90.428 E0.05662
G1 X140.998 Y90.880 E0.05461
G1 X142.576 Y91.615 E0.05458
G1 X144.058 Y92.647 E0.05661
G1 X145.313 Y93.902 E0.05567
G1 X146.346 Y95.384 E0.05663
G1 X147.081 Y96.963 E0.05461
G1 X147.532 Y98.644 E0.05458
G1 X147.694 Y100.444 E0.05666
G1 X147.533 Y102.241 E0.05657
G1 X147.080 Y103.925 E0.05467
G1 X146.346 Y105.503 E0.05458
G1 X145.312 Y106.987 E0.05671
G1 X128.475 Y124.771 E0.76786
G1 X128.245 Y124.850 E0.00762
G1 X108.574 Y124.845 E0.61679
M73 P3 R44
M73 Q3 S44
G1 X101.447 Y122.307 E0.23719
G1 X99.288 Y119.877 E0.10193
G1 X99.209 Y119.647 E0.00762
G1 X99.213 Y97.225 E0.70304
;WIPE_START
G1 F8640.000
G1 X99.312 Y96.966 E-0.06412
G1 X101.416 Y94.807 E-0.69588
;WIPE_END
G1 E-0.04000 F2100.000
G1 Z0.600 F10800.000
G1 X118.868 Y87.844
G1 Z0.200
G1 E0.80000 F2100.000
G1 F1200.000
G1 X104.416 Y87.848 E0.45313
G1 X103.629 Y87.834 E0.02470
G1 X102.283 Y88.112 E0.04309
G1 X100.820 Y88.944 E0.05278
G1 X99.880 Y89.978 E0.04382
G1 X99.437 Y90.827 E0.03002
G1 X98.741 Y91.252 E0.02556
G1 X97.953 Y92.068 E0.03558
G1 X97.396 Y92.947 E0.03264
G1 X96.634 Y93.374 E0.02739
G1 X95.626 Y94.360 E0.04421
G1 X95.104 Y95.205 E0.03115
G1 X94.683 Y96.691 E0.04840
G1 X94.705 Y120.240 E0.73837
G1 X94.933 Y121.253 E0.03256
G1 X95.378 Y122.210 E0.03309
G1 X96.590 Y123.541 E0.05645
G1 X97.064 Y123.832 E0.01745
G1 X97.897 Y125.190 E0.04996
G1 X98.572 Y125.824 E0.02903
M73 P3 R43
G1 X99.174 Y126.255 E0.02322
G1 X100.705 Y126.806 E0.05100
G1 X103.523 Y126.853 E0.08838
;WIPE_START
G1 F8640.000
G1 X100.705 Y126.806 E-0.65085
G1 X100.260 Y126.646 E-0.10915
;WIPE_END
G1 E-0.04000 F2100.000
G1 Z0.600 F10800.000
G1 X104.609 Y127.241
G1 Z0.200
G1 E0.80000 F2100.000
G1 F1200.000
G1 X104.638 Y127.288 E0.00175
G1 X105.878 Y128.462 E0.05354
G1 X106.915 Y128.968 E0.03618
G1 X107.997 Y129.185 E0.03459
G1 X108.783 Y129.178 E0.02466
G1 X109.043 Y129.205 E0.00818
G1 X122.557 Y129.205 E0.42374
G1 X122.797 Y129.180 E0.00755
G1 X123.402 Y129.205 E0.01898
G1 X127.837 Y129.205 E0.13905
G1 X128.102 Y129.177 E0.00838
G1 X128.950 Y129.180 E0.02658
G1 X130.262 Y128.854 E0.04237
G1 X131.252 Y128.284 E0.03583
G1 X132.024 Y127.548 E0.03345
G1 X132.559 Y126.827 E0.02814
G1 X133.132 Y125.063 E0.05817
;WIPE_START
G1 F8640.000
G1 X132.559 Y126.827 E-0.42839
G1 X132.024 Y127.548 E-0.20723
G1 X131.634 Y127.920 E-0.12438
;WIPE_END
G1 E-0.04000 F2100.000
G1 Z0.600 F10800.000
G1 X133.146 Y119.563
G1 Z0.200
G1 E0.80000 F2100.000
G1 F1200.000
G1 X133.146 Y114.247 E0.16669
G1 X134.899 Y114.718 E0.05691
G1 X137.509 Y114.954 E0.08218
;WIPE_START
G1 F8640.000
G1 X134.899 Y114.718 E-0.60523
G1 X134.251 Y114.544 E-0.15477
;WIPE_END
G1 E-0.04000 F2100.000
G1 Z0.600 F10800.000
G1 X144.344 Y113.210
G1 Z0.200
G1 E0.80000 F2100.000
G1 F1200.000
G1 X144.795 Y112.999 E0.01561
G1 X146.923 Y111.496 E0.08170
G1 X148.738 Y109.648 E0.08120
G1 X150.074 Y107.721 E0.07352
G1 X151.071 Y105.633 E0.07253
G1 X151.802 Y103.003 E0.08559
G1 X152.030 Y100.548 E0.07732
G1 X151.838 Y98.089 E0.07734
G1 X151.197 Y95.598 E0.08065
G1 X150.126 Y93.257 E0.08072
G1 X148.658 Y91.143 E0.08067
G1 X146.762 Y89.256 E0.08387
G1 X144.556 Y87.752 E0.08373
G1 X142.262 Y86.728 E0.07875
G1 X140.060 Y86.155 E0.07134
G1 X137.788 Y85.940 E0.07156
G1 X137.232 Y85.937 E0.01745
G1 X135.016 Y86.148 E0.06979
G1 X132.549 Y86.807 E0.08005
G1 X132.089 Y87.022 E0.01592
;WIPE_START
G1 F8640.000
G1 X132.549 Y86.807 E-0.11726
G1 X135.016 Y86.148 E-0.58953
G1 X135.245 Y86.126 E-0.05321
;WIPE_END
G1 E-0.04000 F2100.000
G1 Z0.600 F10800.000
G1 X133.532 Y86.932
G1 Z0.200
G1 E0.80000 F2100.000
G1 F1200.000
G1 X135.067 Y86.522 E0.04982
G1 X137.258 Y86.313 E0.06899
G1 X137.777 Y86.317 E0.01628
G1 X140.009 Y86.529 E0.07032
G1 X142.152 Y87.089 E0.06943
G1 X144.386 Y88.089 E0.07676
G1 X146.535 Y89.558 E0.08161
G1 X148.359 Y91.373 E0.08066
G1 X149.790 Y93.430 E0.07857
G1 X150.836 Y95.708 E0.07862
G1 X151.463 Y98.135 E0.07859
G1 X151.653 Y100.529 E0.07531
G1 X151.429 Y102.952 E0.07628
G1 X150.723 Y105.486 E0.08247
M73 Q3 S43
G1 X149.740 Y107.544 E0.07154
G1 X148.438 Y109.420 E0.07158
G1 X146.667 Y111.219 E0.07916
G1 X145.349 Y112.148 E0.05056
;WIPE_START
G1 F8640.000
G1 X146.667 Y111.219 E-0.37234
G1 X147.844 Y110.022 E-0.38766
;WIPE_END
G1 E-0.04000 F2100.000
G1 Z0.600 F10800.000
G1 X137.896 Y114.546
G1 Z0.200
G1 E0.80000 F2100.000
G1 F1200.000
G1 X137.500 Y114.579 E0.01247
G1 X134.950 Y114.344 E0.08030
G1 X132.769 Y113.753 E0.07085
G1 X132.769 Y119.961 E0.19464
;WIPE_START
G1 F8640.000
G1 X132.769 Y116.670 E-0.76000
;WIPE_END
G1 E-0.04000 F2100.000
G1 Z0.600 F10800.000
G1 X132.537 Y125.692
G1 Z0.200
G1 E0.80000 F2100.000
G1 F1200.000
G1 X132.211 Y126.679 E0.03258
G1 X131.752 Y127.287 E0.02388
G1 X131.043 Y127.969 E0.03085
G1 X130.097 Y128.514 E0.03426
G1 X128.928 Y128.802 E0.03773
G1 X128.082 Y128.800 E0.02655
G1 X127.826 Y128.828 E0.00807
G1 X123.406 Y128.828 E0.13859
G1 X122.784 Y128.802 E0.01952
G1 X122.547 Y128.828 E0.00748
G1 X109.054 Y128.828 E0.42306
G1 X108.803 Y128.800 E0.00791
G1 X108.014 Y128.808 E0.02475
G1 X107.015 Y128.604 E0.03195
G1 X106.072 Y128.138 E0.03300
G1 X105.445 Y127.539 E0.02718
;WIPE_START
G1 F8640.000
G1 X106.072 Y128.138 E-0.20015
G1 X107.015 Y128.604 E-0.24301
G1 X108.014 Y128.808 E-0.23531
G1 X108.367 Y128.804 E-0.08152
;WIPE_END
G1 E-0.04000 F2100.000
G1 Z0.600 F10800.000
G1 X102.428 Y126.463
G1 Z0.200
G1 E0.80000 F2100.000
G1 F1200.000
G1 X100.801 Y126.441 E0.05102
G1 X99.371 Y125.932 E0.04758
G1 X98.821 Y125.540 E0.02120
G1 X98.174 Y124.933 E0.02780
G1 X97.426 Y123.700 E0.04521
G1 X97.377 Y123.578 E0.00413
G1 X96.847 Y123.264 E0.01931
G1 X95.706 Y122.023 E0.05287
G1 X95.296 Y121.149 E0.03025
G1 X95.077 Y120.177 E0.03125
G1 X95.061 Y96.717 E0.73557
G1 X95.459 Y95.336 E0.04507
G1 X95.933 Y94.581 E0.02797
